P3
400 25
255
51 51 51
51 51 51
51 51 51
51 51 51
51 51 51
51 51 51
51 51 51
51 51 51
51 51 51
51 51 51
51 51 51
51 51 51
51 51 51
51 51 51
51 51 51
51 51 51
51 51 51
51 51 51
51 51 51
51 51 51
51 51 51
51 51 51
51 51 51
51 51 51
51 51 51
51 51 51
51 51 51
51 51 51
51 51 51
51 51 51
51 51 51
51 51 51
51 51 51
51 51 51
51 51 51
51 51 51
51 51 51
51 51 51
51 51 51
51 51 51
51 51 51
51 51 51
51 51 51
51 51 51
51 51 51
51 51 51
51 51 51
51 51 51
51 51 51
51 51 51
51 51 51
51 51 51
51 51 51
51 51 51
51 51 51
51 51 51
51 51 51
51 51 51
51 51 51
51 51 51
51 51 51
51 51 51
51 51 51
51 51 51
51 51 51
51 51 51
51 51 51
51 51 51
51 51 51
51 51 51
51 51 51
51 51 51
51 51 51
51 51 51
51 51 51
51 51 51
51 51 51
51 51 51
51 51 51
51 51 51
51 51 51
51 51 51
51 51 51
51 51 51
51 51 51
51 51 51
51 51 51
51 51 51
51 51 51
51 51 51
51 51 51
51 51 51
51 51 51
51 51 51
51 51 51
51 51 51
51 51 51
51 51 51
51 51 51
51 51 51
51 51 51
51 51 51
51 51 51
51 51 51
51 51 51
51 51 51
51 51 51
51 51 51
51 51 51
51 51 51
51 51 51
51 51 51
51 51 51
51 51 51
51 51 51
51 51 51
51 51 51
51 51 51
51 51 51
51 51 51
51 51 51
51 51 51
51 51 51
51 51 51
51 51 51
51 51 51
51 51 51
51 51 51
51 51 51
51 51 51
51 51 51
51 51 51
51 51 51
51 51 51
51 51 51
51 51 51
51 51 51
51 51 51
51 51 51
51 51 51
51 51 51
51 51 51
51 51 51
51 51 51
51 51 51
51 51 51
51 51 51
51 51 51
51 51 51
51 51 51
51 51 51
51 51 51
51 51 51
51 51 51
51 51 51
51 51 51
51 51 51
51 51 51
51 51 51
51 51 51
51 51 51
51 51 51
51 51 51
51 51 51
51 51 51
51 51 51
51 51 51
51 51 51
51 51 51
51 51 51
51 51 51
51 51 51
51 51 51
51 51 51
51 51 51
51 51 51
51 51 51
51 51 51
51 51 51
51 51 51
51 51 51
51 51 51
51 51 51
51 51 51
51 51 51
51 51 51
51 51 51
51 51 51
51 51 51
51 51 51
51 51 51
51 51 51
51 51 51
51 51 51
51 51 51
51 51 51
51 51 51
51 51 51
51 51 51
51 51 51
51 51 51
51 51 51
51 51 51
51 51 51
51 51 51
51 51 51
51 51 51
51 51 51
51 51 51
51 51 51
51 51 51
51 51 51
51 51 51
51 51 51
51 51 51
51 51 51
51 51 51
51 51 51
51 51 51
51 51 51
51 51 51
51 51 51
51 51 51
51 51 51
51 51 51
51 51 51
51 51 51
51 51 51
51 51 51
51 51 51
51 51 51
51 51 51
51 51 51
51 51 51
51 51 51
51 51 51
51 51 51
51 51 51
51 51 51
51 51 51
51 51 51
51 51 51
51 51 51
51 51 51
51 51 51
51 51 51
51 51 51
51 51 51
51 51 51
51 51 51
51 51 51
51 51 51
51 51 51
51 51 51
51 51 51
51 51 51
51 51 51
51 51 51
51 51 51
51 51 51
51 51 51
51 51 51
51 51 51
51 51 51
51 51 51
51 51 51
51 51 51
51 51 51
51 51 51
51 51 51
51 51 51
51 51 51
51 51 51
51 51 51
51 51 51
51 51 51
51 51 51
51 51 51
51 51 51
51 51 51
51 51 51
51 51 51
51 51 51
51 51 51
51 51 51
51 51 51
51 51 51
51 51 51
51 51 51
51 51 51
51 51 51
51 51 51
51 51 51
51 51 51
51 51 51
51 51 51
51 51 51
51 51 51
51 51 51
51 51 51
51 51 51
51 51 51
51 51 51
51 51 51
51 51 51
51 51 51
51 51 51
51 51 51
51 51 51
51 51 51
51 51 51
51 51 51
51 51 51
51 51 51
51 51 51
51 51 51
51 51 51
51 51 51
51 51 51
51 51 51
51 51 51
51 51 51
51 51 51
51 51 51
51 51 51
51 51 51
51 51 51
51 51 51
51 51 51
51 51 51
51 51 51
51 51 51
51 51 51
51 51 51
51 51 51
51 51 51
51 51 51
51 51 51
51 51 51
51 51 51
51 51 51
51 51 51
51 51 51
51 51 51
51 51 51
51 51 51
51 51 51
51 51 51
51 51 51
51 51 51
51 51 51
51 51 51
51 51 51
51 51 51
51 51 51
51 51 51
51 51 51
51 51 51
51 51 51
51 51 51
51 51 51
51 51 51
51 51 51
51 51 51
51 51 51
51 51 51
51 51 51
51 51 51
51 51 51
51 51 51
51 51 51
51 51 51
51 51 51
51 51 51
51 51 51
51 51 51
51 51 51
51 51 51
51 51 51
51 51 51
51 51 51
51 51 51
51 51 51
51 51 51
51 51 51
51 51 51
51 51 51
51 51 51
51 51 51
51 51 51
51 51 51
51 51 51
51 51 51
51 51 51
51 51 51
51 51 51
51 51 51
51 51 51
51 51 51
51 51 51
51 51 51
51 51 51
51 51 51
51 51 51
51 51 51
51 51 51
51 51 51
51 51 51
51 51 51
51 51 51
51 51 51
51 51 51
51 51 51
51 51 51
51 51 51
51 51 51
51 51 51
51 51 51
51 51 51
51 51 51
51 51 51
51 51 51
51 51 51
51 51 51
51 51 51
51 51 51
51 51 51
51 51 51
51 51 51
51 51 51
51 51 51
51 51 51
51 51 51
51 51 51
51 51 51
51 51 51
51 51 51
51 51 51
51 51 51
51 51 51
51 51 51
51 51 51
51 51 51
51 51 51
51 51 51
51 51 51
51 51 51
51 51 51
51 51 51
51 51 51
51 51 51
51 51 51
51 51 51
51 51 51
51 51 51
51 51 51
51 51 51
51 51 51
51 51 51
51 51 51
51 51 51
51 51 51
51 51 51
51 51 51
51 51 51
51 51 51
51 51 51
51 51 51
51 51 51
51 51 51
51 51 51
51 51 51
51 51 51
51 51 51
51 51 51
51 51 51
51 51 51
51 51 51
51 51 51
51 51 51
51 51 51
51 51 51
51 51 51
51 51 51
51 51 51
51 51 51
51 51 51
51 51 51
51 51 51
51 51 51
51 51 51
51 51 51
51 51 51
51 51 51
51 51 51
51 51 51
51 51 51
51 51 51
51 51 51
51 51 51
51 51 51
51 51 51
51 51 51
51 51 51
51 51 51
51 51 51
51 51 51
51 51 51
51 51 51
51 51 51
51 51 51
51 51 51
51 51 51
51 51 51
51 51 51
51 51 51
51 51 51
51 51 51
51 51 51
51 51 51
51 51 51
51 51 51
51 51 51
51 51 51
51 51 51
51 51 51
51 51 51
51 51 51
51 51 51
51 51 51
51 51 51
51 51 51
51 51 51
51 51 51
51 51 51
51 51 51
51 51 51
51 51 51
51 51 51
51 51 51
51 51 51
51 51 51
51 51 51
51 51 51
51 51 51
51 51 51
51 51 51
51 51 51
51 51 51
51 51 51
51 51 51
51 51 51
51 51 51
51 51 51
51 51 51
51 51 51
51 51 51
51 51 51
51 51 51
51 51 51
51 51 51
51 51 51
51 51 51
51 51 51
51 51 51
51 51 51
51 51 51
51 51 51
51 51 51
51 51 51
51 51 51
51 51 51
51 51 51
51 51 51
51 51 51
51 51 51
51 51 51
51 51 51
51 51 51
51 51 51
51 51 51
51 51 51
51 51 51
51 51 51
51 51 51
51 51 51
51 51 51
51 51 51
51 51 51
51 51 51
51 51 51
51 51 51
51 51 51
51 51 51
51 51 51
51 51 51
51 51 51
51 51 51
51 51 51
51 51 51
51 51 51
51 51 51
51 51 51
51 51 51
51 51 51
51 51 51
51 51 51
51 51 51
51 51 51
51 51 51
51 51 51
51 51 51
51 51 51
51 51 51
51 51 51
51 51 51
51 51 51
51 51 51
51 51 51
51 51 51
51 51 51
51 51 51
51 51 51
51 51 51
51 51 51
51 51 51
51 51 51
51 51 51
51 51 51
51 51 51
51 51 51
51 51 51
51 51 51
51 51 51
51 51 51
51 51 51
51 51 51
51 51 51
51 51 51
51 51 51
51 51 51
51 51 51
51 51 51
51 51 51
51 51 51
51 51 51
51 51 51
51 51 51
51 51 51
51 51 51
51 51 51
51 51 51
51 51 51
51 51 51
51 51 51
51 51 51
51 51 51
51 51 51
51 51 51
51 51 51
51 51 51
51 51 51
51 51 51
51 51 51
51 51 51
51 51 51
51 51 51
51 51 51
51 51 51
51 51 51
51 51 51
51 51 51
51 51 51
51 51 51
51 51 51
51 51 51
51 51 51
51 51 51
51 51 51
51 51 51
51 51 51
51 51 51
51 51 51
51 51 51
51 51 51
51 51 51
51 51 51
51 51 51
51 51 51
51 51 51
51 51 51
51 51 51
51 51 51
51 51 51
51 51 51
51 51 51
51 51 51
51 51 51
51 51 51
51 51 51
51 51 51
51 51 51
51 51 51
51 51 51
51 51 51
51 51 51
51 51 51
51 51 51
51 51 51
51 51 51
51 51 51
51 51 51
51 51 51
51 51 51
51 51 51
51 51 51
51 51 51
51 51 51
51 51 51
51 51 51
51 51 51
51 51 51
51 51 51
51 51 51
51 51 51
51 51 51
51 51 51
51 51 51
51 51 51
51 51 51
51 51 51
51 51 51
51 51 51
51 51 51
51 51 51
51 51 51
51 51 51
51 51 51
51 51 51
51 51 51
51 51 51
51 51 51
51 51 51
51 51 51
51 51 51
51 51 51
51 51 51
51 51 51
51 51 51
51 51 51
51 51 51
51 51 51
51 51 51
51 51 51
51 51 51
51 51 51
51 51 51
51 51 51
51 51 51
51 51 51
51 51 51
51 51 51
51 51 51
51 51 51
51 51 51
51 51 51
51 51 51
51 51 51
51 51 51
51 51 51
51 51 51
51 51 51
51 51 51
51 51 51
51 51 51
51 51 51
51 51 51
51 51 51
51 51 51
51 51 51
51 51 51
51 51 51
51 51 51
51 51 51
51 51 51
51 51 51
51 51 51
51 51 51
51 51 51
51 51 51
51 51 51
51 51 51
51 51 51
51 51 51
51 51 51
51 51 51
51 51 51
51 51 51
51 51 51
51 51 51
51 51 51
51 51 51
51 51 51
51 51 51
51 51 51
51 51 51
51 51 51
51 51 51
51 51 51
51 51 51
51 51 51
51 51 51
51 51 51
51 51 51
51 51 51
51 51 51
51 51 51
51 51 51
51 51 51
51 51 51
51 51 51
51 51 51
51 51 51
51 51 51
51 51 51
51 51 51
51 51 51
51 51 51
51 51 51
51 51 51
51 51 51
51 51 51
51 51 51
51 51 51
51 51 51
51 51 51
51 51 51
51 51 51
51 51 51
51 51 51
51 51 51
51 51 51
51 51 51
51 51 51
51 51 51
51 51 51
51 51 51
51 51 51
51 51 51
51 51 51
51 51 51
51 51 51
51 51 51
51 51 51
51 51 51
51 51 51
51 51 51
51 51 51
51 51 51
51 51 51
51 51 51
51 51 51
51 51 51
51 51 51
51 51 51
51 51 51
51 51 51
51 51 51
51 51 51
51 51 51
51 51 51
51 51 51
51 51 51
51 51 51
51 51 51
51 51 51
51 51 51
51 51 51
51 51 51
51 51 51
51 51 51
51 51 51
51 51 51
51 51 51
51 51 51
51 51 51
51 51 51
51 51 51
51 51 51
51 51 51
51 51 51
51 51 51
51 51 51
51 51 51
51 51 51
51 51 51
51 51 51
51 51 51
51 51 51
51 51 51
51 51 51
51 51 51
51 51 51
51 51 51
51 51 51
51 51 51
51 51 51
51 51 51
51 51 51
51 51 51
51 51 51
51 51 51
51 51 51
51 51 51
51 51 51
51 51 51
51 51 51
51 51 51
51 51 51
51 51 51
51 51 51
51 51 51
51 51 51
51 51 51
51 51 51
51 51 51
51 51 51
51 51 51
51 51 51
51 51 51
51 51 51
51 51 51
51 51 51
51 51 51
51 51 51
51 51 51
51 51 51
51 51 51
51 51 51
51 51 51
51 51 51
51 51 51
51 51 51
51 51 51
51 51 51
51 51 51
51 51 51
51 51 51
51 51 51
51 51 51
51 51 51
51 51 51
51 51 51
51 51 51
51 51 51
51 51 51
51 51 51
51 51 51
51 51 51
51 51 51
51 51 51
51 51 51
51 51 51
51 51 51
51 51 51
51 51 51
51 51 51
51 51 51
51 51 51
51 51 51
51 51 51
51 51 51
51 51 51
51 51 51
51 51 51
51 51 51
51 51 51
51 51 51
51 51 51
51 51 51
51 51 51
51 51 51
51 51 51
51 51 51
51 51 51
51 51 51
51 51 51
51 51 51
51 51 51
51 51 51
51 51 51
51 51 51
51 51 51
51 51 51
51 51 51
51 51 51
51 51 51
51 51 51
51 51 51
51 51 51
51 51 51
51 51 51
51 51 51
51 51 51
51 51 51
51 51 51
51 51 51
51 51 51
51 51 51
51 51 51
51 51 51
51 51 51
51 51 51
51 51 51
51 51 51
51 51 51
51 51 51
51 51 51
51 51 51
51 51 51
51 51 51
51 51 51
51 51 51
51 51 51
51 51 51
51 51 51
51 51 51
51 51 51
51 51 51
51 51 51
51 51 51
51 51 51
51 51 51
51 51 51
51 51 51
51 51 51
51 51 51
51 51 51
51 51 51
51 51 51
51 51 51
51 51 51
51 51 51
51 51 51
51 51 51
51 51 51
51 51 51
51 51 51
51 51 51
51 51 51
51 51 51
51 51 51
51 51 51
51 51 51
51 51 51
51 51 51
51 51 51
51 51 51
51 51 51
51 51 51
51 51 51
51 51 51
51 51 51
51 51 51
51 51 51
51 51 51
51 51 51
51 51 51
51 51 51
51 51 51
51 51 51
51 51 51
51 51 51
51 51 51
51 51 51
51 51 51
51 51 51
51 51 51
51 51 51
51 51 51
51 51 51
51 51 51
51 51 51
51 51 51
51 51 51
51 51 51
51 51 51
51 51 51
51 51 51
51 51 51
51 51 51
51 51 51
51 51 51
51 51 51
51 51 51
51 51 51
51 51 51
51 51 51
51 51 51
51 51 51
51 51 51
51 51 51
51 51 51
51 51 51
51 51 51
51 51 51
51 51 51
51 51 51
51 51 51
51 51 51
51 51 51
51 51 51
51 51 51
51 51 51
51 51 51
51 51 51
51 51 51
51 51 51
51 51 51
51 51 51
51 51 51
51 51 51
51 51 51
51 51 51
51 51 51
51 51 51
51 51 51
51 51 51
51 51 51
51 51 51
51 51 51
51 51 51
51 51 51
51 51 51
51 51 51
51 51 51
51 51 51
51 51 51
51 51 51
51 51 51
51 51 51
51 51 51
51 51 51
51 51 51
51 51 51
51 51 51
51 51 51
51 51 51
51 51 51
51 51 51
51 51 51
51 51 51
51 51 51
51 51 51
51 51 51
51 51 51
51 51 51
51 51 51
51 51 51
51 51 51
51 51 51
51 51 51
51 51 51
51 51 51
51 51 51
51 51 51
51 51 51
51 51 51
51 51 51
51 51 51
51 51 51
51 51 51
51 51 51
51 51 51
51 51 51
51 51 51
51 51 51
51 51 51
51 51 51
51 51 51
51 51 51
51 51 51
51 51 51
51 51 51
51 51 51
51 51 51
51 51 51
51 51 51
51 51 51
51 51 51
51 51 51
51 51 51
51 51 51
51 51 51
51 51 51
51 51 51
51 51 51
51 51 51
51 51 51
51 51 51
51 51 51
51 51 51
51 51 51
51 51 51
51 51 51
51 51 51
51 51 51
51 51 51
51 51 51
51 51 51
51 51 51
51 51 51
51 51 51
51 51 51
51 51 51
51 51 51
51 51 51
51 51 51
51 51 51
51 51 51
51 51 51
51 51 51
51 51 51
51 51 51
51 51 51
51 51 51
51 51 51
51 51 51
51 51 51
51 51 51
51 51 51
51 51 51
51 51 51
51 51 51
51 51 51
51 51 51
51 51 51
51 51 51
51 51 51
51 51 51
51 51 51
51 51 51
51 51 51
51 51 51
51 51 51
51 51 51
51 51 51
51 51 51
51 51 51
51 51 51
51 51 51
51 51 51
51 51 51
51 51 51
51 51 51
51 51 51
51 51 51
51 51 51
51 51 51
51 51 51
51 51 51
51 51 51
51 51 51
51 51 51
51 51 51
51 51 51
51 51 51
51 51 51
51 51 51
51 51 51
51 51 51
51 51 51
51 51 51
51 51 51
51 51 51
51 51 51
51 51 51
51 51 51
51 51 51
51 51 51
51 51 51
51 51 51
51 51 51
51 51 51
51 51 51
51 51 51
51 51 51
51 51 51
51 51 51
51 51 51
51 51 51
51 51 51
51 51 51
51 51 51
51 51 51
51 51 51
51 51 51
51 51 51
51 51 51
51 51 51
51 51 51
51 51 51
51 51 51
51 51 51
51 51 51
51 51 51
51 51 51
51 51 51
51 51 51
51 51 51
51 51 51
51 51 51
51 51 51
51 51 51
51 51 51
51 51 51
51 51 51
51 51 51
51 51 51
51 51 51
51 51 51
51 51 51
51 51 51
51 51 51
51 51 51
51 51 51
51 51 51
51 51 51
51 51 51
51 51 51
51 51 51
51 51 51
51 51 51
51 51 51
51 51 51
51 51 51
51 51 51
51 51 51
51 51 51
51 51 51
51 51 51
51 51 51
51 51 51
51 51 51
51 51 51
51 51 51
51 51 51
51 51 51
51 51 51
51 51 51
51 51 51
51 51 51
51 51 51
51 51 51
51 51 51
51 51 51
51 51 51
51 51 51
51 51 51
51 51 51
51 51 51
51 51 51
51 51 51
51 51 51
51 51 51
51 51 51
51 51 51
51 51 51
51 51 51
51 51 51
51 51 51
51 51 51
51 51 51
51 51 51
51 51 51
51 51 51
51 51 51
51 51 51
51 51 51
51 51 51
51 51 51
51 51 51
51 51 51
51 51 51
51 51 51
51 51 51
51 51 51
51 51 51
51 51 51
51 51 51
51 51 51
51 51 51
51 51 51
51 51 51
51 51 51
51 51 51
51 51 51
51 51 51
51 51 51
51 51 51
51 51 51
51 51 51
51 51 51
51 51 51
51 51 51
51 51 51
51 51 51
51 51 51
51 51 51
51 51 51
51 51 51
51 51 51
51 51 51
51 51 51
51 51 51
51 51 51
51 51 51
51 51 51
51 51 51
51 51 51
51 51 51
51 51 51
51 51 51
51 51 51
51 51 51
51 51 51
51 51 51
51 51 51
51 51 51
51 51 51
51 51 51
51 51 51
51 51 51
51 51 51
51 51 51
51 51 51
51 51 51
51 51 51
51 51 51
51 51 51
51 51 51
51 51 51
51 51 51
51 51 51
51 51 51
51 51 51
51 51 51
51 51 51
51 51 51
51 51 51
51 51 51
51 51 51
51 51 51
51 51 51
51 51 51
51 51 51
51 51 51
51 51 51
51 51 51
51 51 51
51 51 51
51 51 51
51 51 51
51 51 51
51 51 51
51 51 51
51 51 51
51 51 51
51 51 51
51 51 51
51 51 51
51 51 51
51 51 51
51 51 51
51 51 51
51 51 51
51 51 51
51 51 51
51 51 51
51 51 51
51 51 51
51 51 51
51 51 51
51 51 51
51 51 51
51 51 51
51 51 51
51 51 51
51 51 51
51 51 51
51 51 51
51 51 51
51 51 51
51 51 51
51 51 51
51 51 51
51 51 51
51 51 51
51 51 51
51 51 51
51 51 51
51 51 51
51 51 51
51 51 51
51 51 51
51 51 51
51 51 51
51 51 51
51 51 51
51 51 51
51 51 51
51 51 51
51 51 51
51 51 51
51 51 51
51 51 51
51 51 51
51 51 51
51 51 51
51 51 51
51 51 51
51 51 51
51 51 51
51 51 51
51 51 51
51 51 51
51 51 51
51 51 51
51 51 51
51 51 51
51 51 51
51 51 51
51 51 51
51 51 51
51 51 51
51 51 51
51 51 51
51 51 51
51 51 51
51 51 51
51 51 51
51 51 51
51 51 51
51 51 51
51 51 51
51 51 51
51 51 51
51 51 51
51 51 51
51 51 51
51 51 51
51 51 51
51 51 51
51 51 51
51 51 51
51 51 51
51 51 51
51 51 51
51 51 51
51 51 51
51 51 51
51 51 51
51 51 51
51 51 51
51 51 51
51 51 51
51 51 51
51 51 51
51 51 51
51 51 51
51 51 51
51 51 51
51 51 51
51 51 51
51 51 51
51 51 51
51 51 51
51 51 51
51 51 51
51 51 51
51 51 51
51 51 51
51 51 51
51 51 51
51 51 51
51 51 51
51 51 51
51 51 51
51 51 51
51 51 51
51 51 51
51 51 51
51 51 51
51 51 51
51 51 51
51 51 51
51 51 51
51 51 51
51 51 51
51 51 51
51 51 51
51 51 51
51 51 51
51 51 51
51 51 51
51 51 51
51 51 51
51 51 51
51 51 51
51 51 51
51 51 51
51 51 51
51 51 51
51 51 51
51 51 51
51 51 51
51 51 51
51 51 51
51 51 51
51 51 51
51 51 51
51 51 51
51 51 51
51 51 51
51 51 51
51 51 51
51 51 51
51 51 51
51 51 51
51 51 51
51 51 51
51 51 51
51 51 51
51 51 51
51 51 51
51 51 51
51 51 51
51 51 51
51 51 51
51 51 51
51 51 51
51 51 51
51 51 51
51 51 51
51 51 51
51 51 51
51 51 51
51 51 51
51 51 51
51 51 51
51 51 51
51 51 51
51 51 51
51 51 51
51 51 51
51 51 51
51 51 51
51 51 51
51 51 51
51 51 51
51 51 51
51 51 51
51 51 51
51 51 51
51 51 51
51 51 51
51 51 51
51 51 51
51 51 51
51 51 51
51 51 51
51 51 51
51 51 51
51 51 51
51 51 51
51 51 51
51 51 51
51 51 51
51 51 51
51 51 51
51 51 51
51 51 51
51 51 51
51 51 51
51 51 51
51 51 51
51 51 51
51 51 51
51 51 51
51 51 51
51 51 51
51 51 51
51 51 51
51 51 51
51 51 51
51 51 51
51 51 51
51 51 51
51 51 51
51 51 51
51 51 51
51 51 51
51 51 51
51 51 51
51 51 51
51 51 51
51 51 51
51 51 51
51 51 51
51 51 51
51 51 51
51 51 51
51 51 51
51 51 51
51 51 51
51 51 51
51 51 51
51 51 51
51 51 51
51 51 51
51 51 51
51 51 51
51 51 51
51 51 51
51 51 51
51 51 51
51 51 51
51 51 51
51 51 51
51 51 51
51 51 51
51 51 51
51 51 51
51 51 51
51 51 51
51 51 51
51 51 51
51 51 51
51 51 51
51 51 51
51 51 51
51 51 51
51 51 51
51 51 51
51 51 51
51 51 51
51 51 51
51 51 51
51 51 51
51 51 51
51 51 51
51 51 51
51 51 51
51 51 51
51 51 51
51 51 51
51 51 51
51 51 51
51 51 51
51 51 51
51 51 51
51 51 51
51 51 51
51 51 51
51 51 51
51 51 51
51 51 51
51 51 51
51 51 51
51 51 51
51 51 51
51 51 51
51 51 51
51 51 51
51 51 51
51 51 51
51 51 51
51 51 51
51 51 51
51 51 51
51 51 51
51 51 51
51 51 51
51 51 51
51 51 51
51 51 51
51 51 51
51 51 51
51 51 51
51 51 51
51 51 51
51 51 51
51 51 51
51 51 51
51 51 51
51 51 51
51 51 51
51 51 51
51 51 51
51 51 51
51 51 51
51 51 51
51 51 51
51 51 51
51 51 51
51 51 51
51 51 51
51 51 51
51 51 51
51 51 51
51 51 51
51 51 51
51 51 51
51 51 51
51 51 51
51 51 51
51 51 51
51 51 51
51 51 51
51 51 51
51 51 51
51 51 51
51 51 51
51 51 51
51 51 51
51 51 51
51 51 51
51 51 51
51 51 51
51 51 51
51 51 51
51 51 51
51 51 51
51 51 51
51 51 51
51 51 51
51 51 51
51 51 51
51 51 51
51 51 51
51 51 51
51 51 51
51 51 51
51 51 51
51 51 51
51 51 51
51 51 51
51 51 51
51 51 51
51 51 51
51 51 51
51 51 51
51 51 51
51 51 51
51 51 51
51 51 51
51 51 51
51 51 51
51 51 51
51 51 51
51 51 51
51 51 51
51 51 51
51 51 51
51 51 51
51 51 51
51 51 51
51 51 51
51 51 51
51 51 51
51 51 51
51 51 51
51 51 51
51 51 51
51 51 51
51 51 51
51 51 51
51 51 51
51 51 51
51 51 51
51 51 51
51 51 51
51 51 51
51 51 51
51 51 51
51 51 51
51 51 51
51 51 51
51 51 51
51 51 51
51 51 51
51 51 51
51 51 51
51 51 51
51 51 51
51 51 51
51 51 51
51 51 51
51 51 51
51 51 51
51 51 51
51 51 51
51 51 51
51 51 51
51 51 51
51 51 51
51 51 51
51 51 51
51 51 51
51 51 51
51 51 51
51 51 51
51 51 51
51 51 51
51 51 51
51 51 51
51 51 51
51 51 51
51 51 51
51 51 51
51 51 51
51 51 51
51 51 51
51 51 51
51 51 51
51 51 51
51 51 51
51 51 51
51 51 51
51 51 51
51 51 51
51 51 51
51 51 51
51 51 51
51 51 51
51 51 51
51 51 51
51 51 51
51 51 51
51 51 51
51 51 51
51 51 51
51 51 51
51 51 51
51 51 51
51 51 51
51 51 51
51 51 51
51 51 51
51 51 51
51 51 51
51 51 51
51 51 51
51 51 51
51 51 51
51 51 51
51 51 51
51 51 51
51 51 51
51 51 51
51 51 51
51 51 51
51 51 51
51 51 51
51 51 51
51 51 51
51 51 51
51 51 51
51 51 51
51 51 51
51 51 51
51 51 51
51 51 51
51 51 51
51 51 51
51 51 51
51 51 51
51 51 51
51 51 51
51 51 51
51 51 51
51 51 51
51 51 51
51 51 51
51 51 51
51 51 51
51 51 51
51 51 51
51 51 51
51 51 51
51 51 51
51 51 51
51 51 51
51 51 51
51 51 51
51 51 51
51 51 51
51 51 51
51 51 51
51 51 51
51 51 51
51 51 51
51 51 51
51 51 51
51 51 51
51 51 51
51 51 51
51 51 51
51 51 51
51 51 51
51 51 51
51 51 51
51 51 51
51 51 51
51 51 51
51 51 51
51 51 51
51 51 51
51 51 51
51 51 51
51 51 51
51 51 51
51 51 51
51 51 51
51 51 51
51 51 51
51 51 51
51 51 51
51 51 51
51 51 51
51 51 51
51 51 51
51 51 51
51 51 51
51 51 51
51 51 51
51 51 51
51 51 51
51 51 51
51 51 51
51 51 51
51 51 51
51 51 51
51 51 51
51 51 51
51 51 51
51 51 51
51 51 51
51 51 51
51 51 51
51 51 51
51 51 51
51 51 51
51 51 51
51 51 51
51 51 51
51 51 51
51 51 51
51 51 51
51 51 51
51 51 51
51 51 51
51 51 51
51 51 51
51 51 51
51 51 51
51 51 51
51 51 51
51 51 51
51 51 51
51 51 51
51 51 51
51 51 51
51 51 51
51 51 51
51 51 51
51 51 51
51 51 51
51 51 51
51 51 51
51 51 51
51 51 51
51 51 51
51 51 51
51 51 51
51 51 51
51 51 51
51 51 51
51 51 51
51 51 51
51 51 51
51 51 51
51 51 51
51 51 51
51 51 51
51 51 51
51 51 51
51 51 51
51 51 51
51 51 51
51 51 51
51 51 51
51 51 51
51 51 51
51 51 51
51 51 51
51 51 51
51 51 51
51 51 51
51 51 51
51 51 51
51 51 51
51 51 51
51 51 51
51 51 51
51 51 51
51 51 51
51 51 51
51 51 51
51 51 51
51 51 51
51 51 51
51 51 51
51 51 51
51 51 51
51 51 51
51 51 51
51 51 51
51 51 51
51 51 51
51 51 51
51 51 51
51 51 51
51 51 51
51 51 51
51 51 51
51 51 51
51 51 51
51 51 51
51 51 51
51 51 51
51 51 51
51 51 51
51 51 51
51 51 51
51 51 51
51 51 51
51 51 51
51 51 51
51 51 51
51 51 51
51 51 51
51 51 51
51 51 51
51 51 51
51 51 51
51 51 51
51 51 51
51 51 51
51 51 51
51 51 51
51 51 51
51 51 51
51 51 51
51 51 51
51 51 51
51 51 51
51 51 51
51 51 51
51 51 51
51 51 51
51 51 51
51 51 51
51 51 51
51 51 51
51 51 51
51 51 51
51 51 51
51 51 51
51 51 51
51 51 51
51 51 51
51 51 51
51 51 51
51 51 51
51 51 51
51 51 51
51 51 51
51 51 51
51 51 51
51 51 51
51 51 51
51 51 51
51 51 51
51 51 51
51 51 51
51 51 51
51 51 51
51 51 51
51 51 51
51 51 51
51 51 51
51 51 51
51 51 51
51 51 51
51 51 51
51 51 51
51 51 51
51 51 51
51 51 51
51 51 51
51 51 51
51 51 51
51 51 51
51 51 51
51 51 51
51 51 51
51 51 51
51 51 51
51 51 51
51 51 51
51 51 51
51 51 51
51 51 51
51 51 51
51 51 51
51 51 51
51 51 51
51 51 51
51 51 51
51 51 51
51 51 51
51 51 51
51 51 51
51 51 51
51 51 51
51 51 51
51 51 51
51 51 51
51 51 51
51 51 51
51 51 51
51 51 51
51 51 51
51 51 51
51 51 51
51 51 51
51 51 51
51 51 51
51 51 51
51 51 51
51 51 51
51 51 51
51 51 51
51 51 51
51 51 51
51 51 51
51 51 51
51 51 51
51 51 51
51 51 51
51 51 51
51 51 51
51 51 51
51 51 51
51 51 51
51 51 51
51 51 51
51 51 51
51 51 51
51 51 51
51 51 51
51 51 51
51 51 51
51 51 51
51 51 51
51 51 51
51 51 51
51 51 51
51 51 51
51 51 51
51 51 51
51 51 51
51 51 51
51 51 51
51 51 51
51 51 51
51 51 51
51 51 51
51 51 51
51 51 51
51 51 51
51 51 51
51 51 51
51 51 51
51 51 51
51 51 51
51 51 51
51 51 51
51 51 51
51 51 51
51 51 51
51 51 51
51 51 51
51 51 51
51 51 51
51 51 51
51 51 51
51 51 51
51 51 51
51 51 51
51 51 51
51 51 51
51 51 51
51 51 51
51 51 51
51 51 51
51 51 51
51 51 51
51 51 51
51 51 51
51 51 51
51 51 51
51 51 51
51 51 51
51 51 51
51 51 51
51 51 51
51 51 51
51 51 51
51 51 51
51 51 51
51 51 51
51 51 51
51 51 51
51 51 51
51 51 51
51 51 51
51 51 51
51 51 51
51 51 51
51 51 51
51 51 51
51 51 51
51 51 51
51 51 51
51 51 51
51 51 51
51 51 51
51 51 51
51 51 51
51 51 51
51 51 51
51 51 51
51 51 51
51 51 51
51 51 51
51 51 51
51 51 51
51 51 51
51 51 51
51 51 51
51 51 51
51 51 51
51 51 51
51 51 51
51 51 51
51 51 51
51 51 51
51 51 51
51 51 51
51 51 51
51 51 51
51 51 51
51 51 51
51 51 51
51 51 51
51 51 51
51 51 51
51 51 51
51 51 51
51 51 51
51 51 51
51 51 51
51 51 51
51 51 51
51 51 51
51 51 51
51 51 51
51 51 51
51 51 51
51 51 51
51 51 51
51 51 51
51 51 51
51 51 51
51 51 51
51 51 51
51 51 51
51 51 51
51 51 51
51 51 51
51 51 51
51 51 51
51 51 51
51 51 51
51 51 51
51 51 51
51 51 51
51 51 51
51 51 51
51 51 51
51 51 51
51 51 51
51 51 51
51 51 51
51 51 51
51 51 51
51 51 51
51 51 51
51 51 51
51 51 51
51 51 51
51 51 51
51 51 51
51 51 51
51 51 51
51 51 51
51 51 51
51 51 51
51 51 51
51 51 51
51 51 51
51 51 51
51 51 51
51 51 51
51 51 51
51 51 51
51 51 51
51 51 51
51 51 51
51 51 51
51 51 51
51 51 51
51 51 51
51 51 51
51 51 51
51 51 51
51 51 51
51 51 51
51 51 51
51 51 51
51 51 51
51 51 51
51 51 51
51 51 51
51 51 51
51 51 51
51 51 51
51 51 51
51 51 51
51 51 51
51 51 51
51 51 51
51 51 51
51 51 51
51 51 51
51 51 51
51 51 51
51 51 51
51 51 51
51 51 51
51 51 51
51 51 51
51 51 51
51 51 51
51 51 51
51 51 51
51 51 51
51 51 51
51 51 51
51 51 51
51 51 51
51 51 51
51 51 51
51 51 51
51 51 51
51 51 51
51 51 51
51 51 51
51 51 51
51 51 51
51 51 51
51 51 51
51 51 51
51 51 51
51 51 51
51 51 51
51 51 51
51 51 51
51 51 51
51 51 51
51 51 51
51 51 51
51 51 51
51 51 51
51 51 51
51 51 51
51 51 51
51 51 51
51 51 51
51 51 51
51 51 51
51 51 51
51 51 51
51 51 51
51 51 51
51 51 51
51 51 51
51 51 51
51 51 51
51 51 51
51 51 51
51 51 51
51 51 51
51 51 51
51 51 51
51 51 51
51 51 51
51 51 51
51 51 51
51 51 51
51 51 51
51 51 51
51 51 51
51 51 51
51 51 51
51 51 51
51 51 51
51 51 51
51 51 51
51 51 51
51 51 51
51 51 51
51 51 51
51 51 51
51 51 51
51 51 51
51 51 51
51 51 51
51 51 51
51 51 51
51 51 51
51 51 51
51 51 51
51 51 51
51 51 51
51 51 51
51 51 51
51 51 51
51 51 51
51 51 51
51 51 51
51 51 51
51 51 51
51 51 51
51 51 51
51 51 51
51 51 51
51 51 51
51 51 51
51 51 51
51 51 51
51 51 51
51 51 51
51 51 51
51 51 51
51 51 51
51 51 51
51 51 51
51 51 51
51 51 51
51 51 51
51 51 51
51 51 51
51 51 51
51 51 51
51 51 51
51 51 51
51 51 51
51 51 51
51 51 51
51 51 51
51 51 51
51 51 51
51 51 51
51 51 51
51 51 51
51 51 51
51 51 51
51 51 51
51 51 51
51 51 51
51 51 51
51 51 51
51 51 51
51 51 51
51 51 51
51 51 51
51 51 51
51 51 51
51 51 51
51 51 51
51 51 51
51 51 51
51 51 51
51 51 51
51 51 51
51 51 51
51 51 51
51 51 51
51 51 51
51 51 51
51 51 51
51 51 51
51 51 51
51 51 51
51 51 51
51 51 51
51 51 51
51 51 51
51 51 51
51 51 51
51 51 51
51 51 51
51 51 51
51 51 51
51 51 51
51 51 51
51 51 51
51 51 51
51 51 51
51 51 51
51 51 51
51 51 51
51 51 51
51 51 51
51 51 51
51 51 51
51 51 51
51 51 51
51 51 51
51 51 51
51 51 51
51 51 51
51 51 51
51 51 51
51 51 51
51 51 51
51 51 51
51 51 51
51 51 51
51 51 51
51 51 51
51 51 51
51 51 51
51 51 51
51 51 51
51 51 51
51 51 51
51 51 51
51 51 51
51 51 51
51 51 51
51 51 51
51 51 51
51 51 51
51 51 51
51 51 51
51 51 51
51 51 51
51 51 51
51 51 51
51 51 51
51 51 51
51 51 51
51 51 51
51 51 51
51 51 51
51 51 51
51 51 51
51 51 51
51 51 51
51 51 51
51 51 51
51 51 51
51 51 51
51 51 51
51 51 51
51 51 51
51 51 51
51 51 51
51 51 51
51 51 51
51 51 51
51 51 51
51 51 51
51 51 51
51 51 51
51 51 51
51 51 51
51 51 51
51 51 51
51 51 51
51 51 51
51 51 51
51 51 51
51 51 51
51 51 51
51 51 51
51 51 51
51 51 51
51 51 51
51 51 51
51 51 51
51 51 51
51 51 51
51 51 51
51 51 51
51 51 51
51 51 51
51 51 51
51 51 51
51 51 51
51 51 51
51 51 51
51 51 51
51 51 51
51 51 51
51 51 51
51 51 51
51 51 51
51 51 51
51 51 51
51 51 51
51 51 51
51 51 51
51 51 51
51 51 51
51 51 51
51 51 51
51 51 51
51 51 51
51 51 51
51 51 51
51 51 51
51 51 51
51 51 51
51 51 51
51 51 51
51 51 51
51 51 51
51 51 51
51 51 51
51 51 51
51 51 51
51 51 51
51 51 51
51 51 51
51 51 51
51 51 51
51 51 51
51 51 51
51 51 51
51 51 51
51 51 51
51 51 51
51 51 51
51 51 51
51 51 51
51 51 51
51 51 51
51 51 51
51 51 51
51 51 51
51 51 51
51 51 51
51 51 51
51 51 51
51 51 51
51 51 51
51 51 51
51 51 51
51 51 51
51 51 51
51 51 51
51 51 51
51 51 51
51 51 51
51 51 51
51 51 51
51 51 51
51 51 51
51 51 51
51 51 51
51 51 51
51 51 51
51 51 51
51 51 51
51 51 51
51 51 51
51 51 51
51 51 51
51 51 51
51 51 51
51 51 51
51 51 51
51 51 51
51 51 51
51 51 51
51 51 51
51 51 51
51 51 51
51 51 51
51 51 51
51 51 51
51 51 51
51 51 51
51 51 51
51 51 51
51 51 51
51 51 51
51 51 51
51 51 51
51 51 51
51 51 51
51 51 51
51 51 51
51 51 51
51 51 51
51 51 51
51 51 51
51 51 51
51 51 51
51 51 51
51 51 51
51 51 51
51 51 51
51 51 51
51 51 51
51 51 51
51 51 51
51 51 51
51 51 51
51 51 51
51 51 51
51 51 51
51 51 51
51 51 51
51 51 51
51 51 51
51 51 51
51 51 51
51 51 51
51 51 51
51 51 51
51 51 51
51 51 51
51 51 51
51 51 51
51 51 51
51 51 51
51 51 51
51 51 51
51 51 51
51 51 51
51 51 51
51 51 51
51 51 51
51 51 51
51 51 51
51 51 51
51 51 51
51 51 51
51 51 51
51 51 51
51 51 51
51 51 51
51 51 51
51 51 51
51 51 51
51 51 51
51 51 51
51 51 51
51 51 51
51 51 51
51 51 51
51 51 51
51 51 51
51 51 51
51 51 51
51 51 51
51 51 51
51 51 51
51 51 51
51 51 51
51 51 51
51 51 51
51 51 51
51 51 51
51 51 51
51 51 51
51 51 51
51 51 51
51 51 51
51 51 51
51 51 51
51 51 51
51 51 51
51 51 51
51 51 51
51 51 51
51 51 51
51 51 51
51 51 51
51 51 51
51 51 51
51 51 51
51 51 51
51 51 51
51 51 51
51 51 51
51 51 51
51 51 51
51 51 51
51 51 51
51 51 51
51 51 51
51 51 51
51 51 51
51 51 51
51 51 51
51 51 51
51 51 51
51 51 51
51 51 51
51 51 51
51 51 51
51 51 51
51 51 51
51 51 51
51 51 51
51 51 51
51 51 51
51 51 51
51 51 51
51 51 51
51 51 51
51 51 51
51 51 51
51 51 51
51 51 51
51 51 51
51 51 51
51 51 51
51 51 51
51 51 51
51 51 51
51 51 51
51 51 51
51 51 51
51 51 51
51 51 51
51 51 51
51 51 51
51 51 51
51 51 51
51 51 51
51 51 51
51 51 51
51 51 51
51 51 51
51 51 51
51 51 51
51 51 51
51 51 51
51 51 51
51 51 51
51 51 51
51 51 51
51 51 51
51 51 51
51 51 51
51 51 51
51 51 51
51 51 51
51 51 51
51 51 51
51 51 51
51 51 51
51 51 51
51 51 51
51 51 51
51 51 51
51 51 51
51 51 51
51 51 51
51 51 51
51 51 51
51 51 51
51 51 51
51 51 51
51 51 51
51 51 51
51 51 51
51 51 51
51 51 51
51 51 51
51 51 51
51 51 51
51 51 51
51 51 51
51 51 51
51 51 51
51 51 51
51 51 51
51 51 51
51 51 51
51 51 51
51 51 51
51 51 51
51 51 51
51 51 51
51 51 51
51 51 51
51 51 51
51 51 51
51 51 51
51 51 51
51 51 51
51 51 51
51 51 51
51 51 51
51 51 51
51 51 51
51 51 51
51 51 51
51 51 51
51 51 51
51 51 51
51 51 51
51 51 51
51 51 51
51 51 51
51 51 51
51 51 51
51 51 51
51 51 51
51 51 51
51 51 51
51 51 51
51 51 51
51 51 51
51 51 51
51 51 51
51 51 51
51 51 51
51 51 51
51 51 51
51 51 51
51 51 51
51 51 51
51 51 51
51 51 51
51 51 51
51 51 51
51 51 51
51 51 51
51 51 51
51 51 51
51 51 51
51 51 51
51 51 51
51 51 51
51 51 51
51 51 51
51 51 51
51 51 51
51 51 51
51 51 51
51 51 51
51 51 51
51 51 51
51 51 51
51 51 51
51 51 51
51 51 51
51 51 51
51 51 51
51 51 51
51 51 51
51 51 51
51 51 51
51 51 51
51 51 51
51 51 51
51 51 51
51 51 51
51 51 51
51 51 51
51 51 51
51 51 51
51 51 51
51 51 51
51 51 51
51 51 51
51 51 51
51 51 51
51 51 51
51 51 51
51 51 51
51 51 51
51 51 51
51 51 51
51 51 51
51 51 51
51 51 51
51 51 51
51 51 51
51 51 51
51 51 51
51 51 51
51 51 51
51 51 51
51 51 51
51 51 51
51 51 51
51 51 51
51 51 51
51 51 51
51 51 51
51 51 51
51 51 51
51 51 51
51 51 51
51 51 51
51 51 51
51 51 51
51 51 51
51 51 51
51 51 51
51 51 51
51 51 51
51 51 51
51 51 51
51 51 51
51 51 51
51 51 51
51 51 51
51 51 51
51 51 51
51 51 51
51 51 51
51 51 51
51 51 51
51 51 51
51 51 51
51 51 51
51 51 51
51 51 51
51 51 51
51 51 51
51 51 51
51 51 51
51 51 51
51 51 51
51 51 51
51 51 51
51 51 51
51 51 51
51 51 51
51 51 51
51 51 51
51 51 51
51 51 51
51 51 51
51 51 51
51 51 51
51 51 51
51 51 51
51 51 51
51 51 51
51 51 51
51 51 51
51 51 51
51 51 51
51 51 51
51 51 51
51 51 51
51 51 51
51 51 51
51 51 51
51 51 51
51 51 51
51 51 51
51 51 51
51 51 51
51 51 51
51 51 51
51 51 51
51 51 51
51 51 51
51 51 51
51 51 51
51 51 51
51 51 51
51 51 51
51 51 51
51 51 51
51 51 51
51 51 51
51 51 51
51 51 51
51 51 51
51 51 51
51 51 51
51 51 51
51 51 51
51 51 51
51 51 51
51 51 51
51 51 51
51 51 51
51 51 51
51 51 51
51 51 51
51 51 51
51 51 51
51 51 51
51 51 51
51 51 51
51 51 51
51 51 51
51 51 51
51 51 51
51 51 51
51 51 51
51 51 51
51 51 51
51 51 51
51 51 51
51 51 51
51 51 51
51 51 51
51 51 51
51 51 51
51 51 51
51 51 51
51 51 51
51 51 51
51 51 51
51 51 51
51 51 51
51 51 51
51 51 51
51 51 51
51 51 51
51 51 51
51 51 51
51 51 51
51 51 51
51 51 51
51 51 51
51 51 51
51 51 51
51 51 51
51 51 51
51 51 51
51 51 51
51 51 51
51 51 51
51 51 51
51 51 51
51 51 51
51 51 51
51 51 51
51 51 51
51 51 51
51 51 51
51 51 51
51 51 51
51 51 51
51 51 51
51 51 51
51 51 51
51 51 51
51 51 51
51 51 51
51 51 51
51 51 51
51 51 51
51 51 51
51 51 51
51 51 51
51 51 51
51 51 51
51 51 51
51 51 51
51 51 51
51 51 51
51 51 51
51 51 51
51 51 51
51 51 51
51 51 51
51 51 51
51 51 51
51 51 51
51 51 51
51 51 51
51 51 51
51 51 51
51 51 51
51 51 51
51 51 51
51 51 51
51 51 51
51 51 51
51 51 51
51 51 51
51 51 51
51 51 51
51 51 51
51 51 51
51 51 51
51 51 51
51 51 51
51 51 51
51 51 51
51 51 51
51 51 51
51 51 51
51 51 51
51 51 51
51 51 51
51 51 51
51 51 51
51 51 51
51 51 51
51 51 51
51 51 51
51 51 51
51 51 51
51 51 51
51 51 51
51 51 51
51 51 51
51 51 51
51 51 51
51 51 51
51 51 51
51 51 51
51 51 51
51 51 51
51 51 51
51 51 51
51 51 51
51 51 51
51 51 51
51 51 51
51 51 51
51 51 51
51 51 51
51 51 51
51 51 51
51 51 51
51 51 51
51 51 51
51 51 51
51 51 51
51 51 51
51 51 51
51 51 51
51 51 51
51 51 51
51 51 51
51 51 51
51 51 51
51 51 51
51 51 51
51 51 51
51 51 51
51 51 51
51 51 51
51 51 51
51 51 51
51 51 51
51 51 51
51 51 51
51 51 51
51 51 51
51 51 51
51 51 51
51 51 51
51 51 51
51 51 51
51 51 51
51 51 51
51 51 51
51 51 51
51 51 51
51 51 51
51 51 51
51 51 51
51 51 51
51 51 51
51 51 51
51 51 51
51 51 51
51 51 51
51 51 51
51 51 51
51 51 51
51 51 51
51 51 51
51 51 51
51 51 51
51 51 51
51 51 51
51 51 51
51 51 51
51 51 51
51 51 51
51 51 51
51 51 51
51 51 51
51 51 51
51 51 51
51 51 51
51 51 51
51 51 51
51 51 51
51 51 51
51 51 51
51 51 51
51 51 51
51 51 51
51 51 51
51 51 51
51 51 51
51 51 51
51 51 51
51 51 51
51 51 51
51 51 51
51 51 51
51 51 51
51 51 51
51 51 51
51 51 51
51 51 51
51 51 51
51 51 51
51 51 51
51 51 51
51 51 51
51 51 51
51 51 51
51 51 51
51 51 51
51 51 51
51 51 51
51 51 51
51 51 51
51 51 51
51 51 51
51 51 51
51 51 51
51 51 51
51 51 51
51 51 51
51 51 51
51 51 51
51 51 51
51 51 51
51 51 51
51 51 51
51 51 51
51 51 51
51 51 51
51 51 51
51 51 51
51 51 51
51 51 51
51 51 51
51 51 51
51 51 51
51 51 51
51 51 51
51 51 51
51 51 51
51 51 51
51 51 51
51 51 51
51 51 51
51 51 51
51 51 51
51 51 51
51 51 51
51 51 51
51 51 51
51 51 51
51 51 51
51 51 51
51 51 51
51 51 51
51 51 51
51 51 51
51 51 51
51 51 51
51 51 51
51 51 51
51 51 51
51 51 51
51 51 51
51 51 51
51 51 51
51 51 51
51 51 51
51 51 51
51 51 51
51 51 51
51 51 51
51 51 51
51 51 51
51 51 51
51 51 51
51 51 51
51 51 51
51 51 51
51 51 51
51 51 51
51 51 51
51 51 51
51 51 51
51 51 51
51 51 51
51 51 51
51 51 51
51 51 51
51 51 51
51 51 51
51 51 51
51 51 51
51 51 51
51 51 51
51 51 51
51 51 51
51 51 51
51 51 51
51 51 51
51 51 51
51 51 51
51 51 51
51 51 51
51 51 51
51 51 51
51 51 51
51 51 51
51 51 51
51 51 51
51 51 51
51 51 51
51 51 51
51 51 51
51 51 51
51 51 51
51 51 51
51 51 51
51 51 51
51 51 51
51 51 51
51 51 51
51 51 51
51 51 51
51 51 51
51 51 51
51 51 51
51 51 51
51 51 51
51 51 51
51 51 51
51 51 51
51 51 51
51 51 51
51 51 51
51 51 51
51 51 51
51 51 51
51 51 51
51 51 51
51 51 51
51 51 51
51 51 51
51 51 51
51 51 51
51 51 51
51 51 51
51 51 51
51 51 51
51 51 51
51 51 51
51 51 51
51 51 51
51 51 51
51 51 51
51 51 51
51 51 51
51 51 51
51 51 51
51 51 51
51 51 51
51 51 51
51 51 51
51 51 51
51 51 51
51 51 51
51 51 51
51 51 51
51 51 51
51 51 51
51 51 51
51 51 51
51 51 51
51 51 51
51 51 51
51 51 51
51 51 51
51 51 51
51 51 51
51 51 51
51 51 51
51 51 51
51 51 51
51 51 51
51 51 51
51 51 51
51 51 51
51 51 51
51 51 51
51 51 51
51 51 51
51 51 51
51 51 51
51 51 51
51 51 51
51 51 51
51 51 51
51 51 51
51 51 51
51 51 51
51 51 51
51 51 51
51 51 51
51 51 51
51 51 51
51 51 51
51 51 51
51 51 51
51 51 51
51 51 51
51 51 51
51 51 51
51 51 51
51 51 51
51 51 51
51 51 51
51 51 51
51 51 51
51 51 51
51 51 51
51 51 51
51 51 51
51 51 51
51 51 51
51 51 51
51 51 51
51 51 51
51 51 51
51 51 51
51 51 51
51 51 51
51 51 51
51 51 51
51 51 51
51 51 51
51 51 51
51 51 51
51 51 51
51 51 51
51 51 51
51 51 51
51 51 51
51 51 51
51 51 51
51 51 51
51 51 51
51 51 51
51 51 51
51 51 51
51 51 51
51 51 51
51 51 51
51 51 51
51 51 51
51 51 51
51 51 51
51 51 51
51 51 51
51 51 51
51 51 51
51 51 51
51 51 51
51 51 51
51 51 51
51 51 51
51 51 51
51 51 51
51 51 51
51 51 51
51 51 51
51 51 51
51 51 51
51 51 51
51 51 51
51 51 51
51 51 51
51 51 51
51 51 51
51 51 51
51 51 51
51 51 51
51 51 51
51 51 51
51 51 51
51 51 51
51 51 51
51 51 51
51 51 51
51 51 51
51 51 51
51 51 51
51 51 51
51 51 51
51 51 51
51 51 51
51 51 51
51 51 51
51 51 51
51 51 51
51 51 51
51 51 51
51 51 51
51 51 51
51 51 51
51 51 51
51 51 51
51 51 51
51 51 51
51 51 51
51 51 51
51 51 51
51 51 51
51 51 51
51 51 51
51 51 51
51 51 51
51 51 51
51 51 51
51 51 51
51 51 51
51 51 51
51 51 51
51 51 51
51 51 51
51 51 51
51 51 51
51 51 51
51 51 51
51 51 51
51 51 51
51 51 51
51 51 51
51 51 51
51 51 51
51 51 51
51 51 51
51 51 51
51 51 51
51 51 51
51 51 51
51 51 51
51 51 51
51 51 51
51 51 51
51 51 51
51 51 51
51 51 51
51 51 51
51 51 51
51 51 51
51 51 51
51 51 51
51 51 51
51 51 51
51 51 51
51 51 51
51 51 51
51 51 51
51 51 51
51 51 51
51 51 51
51 51 51
51 51 51
51 51 51
51 51 51
51 51 51
51 51 51
51 51 51
51 51 51
51 51 51
51 51 51
51 51 51
51 51 51
51 51 51
51 51 51
51 51 51
51 51 51
51 51 51
51 51 51
51 51 51
51 51 51
51 51 51
51 51 51
51 51 51
51 51 51
51 51 51
51 51 51
51 51 51
51 51 51
51 51 51
51 51 51
51 51 51
51 51 51
51 51 51
51 51 51
51 51 51
51 51 51
51 51 51
51 51 51
51 51 51
51 51 51
51 51 51
51 51 51
51 51 51
51 51 51
51 51 51
51 51 51
51 51 51
51 51 51
51 51 51
51 51 51
51 51 51
51 51 51
51 51 51
51 51 51
51 51 51
51 51 51
51 51 51
51 51 51
51 51 51
51 51 51
51 51 51
51 51 51
51 51 51
51 51 51
51 51 51
51 51 51
51 51 51
51 51 51
51 51 51
51 51 51
51 51 51
51 51 51
51 51 51
51 51 51
51 51 51
51 51 51
51 51 51
51 51 51
51 51 51
51 51 51
51 51 51
51 51 51
51 51 51
51 51 51
51 51 51
51 51 51
51 51 51
51 51 51
51 51 51
51 51 51
51 51 51
51 51 51
51 51 51
51 51 51
51 51 51
51 51 51
51 51 51
51 51 51
51 51 51
51 51 51
51 51 51
51 51 51
51 51 51
51 51 51
51 51 51
51 51 51
51 51 51
51 51 51
51 51 51
51 51 51
51 51 51
51 51 51
51 51 51
51 51 51
51 51 51
51 51 51
51 51 51
51 51 51
51 51 51
51 51 51
51 51 51
51 51 51
51 51 51
51 51 51
51 51 51
51 51 51
51 51 51
51 51 51
51 51 51
51 51 51
51 51 51
51 51 51
51 51 51
51 51 51
51 51 51
51 51 51
51 51 51
51 51 51
51 51 51
51 51 51
51 51 51
51 51 51
51 51 51
51 51 51
51 51 51
51 51 51
51 51 51
51 51 51
51 51 51
51 51 51
51 51 51
51 51 51
51 51 51
51 51 51
51 51 51
51 51 51
51 51 51
51 51 51
51 51 51
51 51 51
51 51 51
51 51 51
51 51 51
51 51 51
51 51 51
51 51 51
51 51 51
51 51 51
51 51 51
51 51 51
51 51 51
51 51 51
51 51 51
51 51 51
51 51 51
51 51 51
51 51 51
51 51 51
51 51 51
51 51 51
51 51 51
51 51 51
51 51 51
51 51 51
51 51 51
51 51 51
51 51 51
51 51 51
51 51 51
51 51 51
51 51 51
51 51 51
51 51 51
51 51 51
51 51 51
51 51 51
51 51 51
51 51 51
51 51 51
51 51 51
51 51 51
51 51 51
51 51 51
51 51 51
51 51 51
51 51 51
51 51 51
51 51 51
51 51 51
51 51 51
51 51 51
51 51 51
51 51 51
51 51 51
51 51 51
51 51 51
51 51 51
51 51 51
51 51 51
51 51 51
51 51 51
51 51 51
51 51 51
51 51 51
51 51 51
51 51 51
51 51 51
51 51 51
51 51 51
51 51 51
51 51 51
51 51 51
51 51 51
51 51 51
51 51 51
51 51 51
51 51 51
51 51 51
51 51 51
51 51 51
51 51 51
51 51 51
51 51 51
51 51 51
51 51 51
51 51 51
51 51 51
51 51 51
51 51 51
51 51 51
51 51 51
51 51 51
51 51 51
51 51 51
51 51 51
51 51 51
51 51 51
51 51 51
51 51 51
51 51 51
51 51 51
51 51 51
51 51 51
51 51 51
51 51 51
51 51 51
51 51 51
51 51 51
51 51 51
51 51 51
51 51 51
51 51 51
51 51 51
51 51 51
51 51 51
51 51 51
51 51 51
51 51 51
51 51 51
51 51 51
51 51 51
51 51 51
51 51 51
51 51 51
51 51 51
51 51 51
51 51 51
51 51 51
51 51 51
51 51 51
51 51 51
51 51 51
51 51 51
51 51 51
51 51 51
51 51 51
51 51 51
51 51 51
51 51 51
51 51 51
51 51 51
51 51 51
51 51 51
51 51 51
51 51 51
51 51 51
51 51 51
51 51 51
51 51 51
51 51 51
51 51 51
51 51 51
51 51 51
51 51 51
51 51 51
51 51 51
51 51 51
51 51 51
51 51 51
51 51 51
51 51 51
51 51 51
51 51 51
51 51 51
51 51 51
51 51 51
51 51 51
51 51 51
51 51 51
51 51 51
51 51 51
51 51 51
51 51 51
51 51 51
51 51 51
51 51 51
51 51 51
51 51 51
51 51 51
51 51 51
51 51 51
51 51 51
51 51 51
51 51 51
51 51 51
51 51 51
51 51 51
51 51 51
51 51 51
51 51 51
51 51 51
51 51 51
51 51 51
51 51 51
51 51 51
51 51 51
51 51 51
51 51 51
51 51 51
51 51 51
51 51 51
51 51 51
51 51 51
51 51 51
51 51 51
51 51 51
51 51 51
51 51 51
51 51 51
51 51 51
51 51 51
51 51 51
51 51 51
51 51 51
51 51 51
51 51 51
51 51 51
51 51 51
51 51 51
51 51 51
51 51 51
51 51 51
51 51 51
51 51 51
51 51 51
51 51 51
51 51 51
51 51 51
51 51 51
51 51 51
51 51 51
51 51 51
51 51 51
51 51 51
51 51 51
51 51 51
51 51 51
51 51 51
51 51 51
51 51 51
51 51 51
51 51 51
51 51 51
51 51 51
51 51 51
51 51 51
51 51 51
51 51 51
51 51 51
51 51 51
51 51 51
51 51 51
51 51 51
51 51 51
51 51 51
51 51 51
51 51 51
51 51 51
51 51 51
51 51 51
51 51 51
51 51 51
51 51 51
51 51 51
51 51 51
51 51 51
51 51 51
51 51 51
51 51 51
51 51 51
51 51 51
51 51 51
51 51 51
51 51 51
51 51 51
51 51 51
51 51 51
51 51 51
51 51 51
51 51 51
51 51 51
51 51 51
51 51 51
51 51 51
51 51 51
51 51 51
51 51 51
51 51 51
51 51 51
51 51 51
51 51 51
51 51 51
51 51 51
51 51 51
51 51 51
51 51 51
51 51 51
51 51 51
51 51 51
51 51 51
51 51 51
51 51 51
51 51 51
51 51 51
51 51 51
51 51 51
51 51 51
51 51 51
51 51 51
51 51 51
51 51 51
51 51 51
51 51 51
51 51 51
51 51 51
51 51 51
51 51 51
51 51 51
51 51 51
51 51 51
51 51 51
51 51 51
51 51 51
51 51 51
51 51 51
51 51 51
51 51 51
51 51 51
51 51 51
51 51 51
51 51 51
51 51 51
51 51 51
51 51 51
51 51 51
51 51 51
51 51 51
51 51 51
51 51 51
51 51 51
51 51 51
51 51 51
51 51 51
51 51 51
51 51 51
51 51 51
51 51 51
51 51 51
51 51 51
51 51 51
51 51 51
51 51 51
51 51 51
51 51 51
51 51 51
51 51 51
51 51 51
51 51 51
51 51 51
51 51 51
51 51 51
51 51 51
51 51 51
51 51 51
51 51 51
51 51 51
51 51 51
51 51 51
51 51 51
51 51 51
51 51 51
51 51 51
51 51 51
51 51 51
51 51 51
51 51 51
51 51 51
51 51 51
51 51 51
51 51 51
51 51 51
51 51 51
51 51 51
51 51 51
51 51 51
51 51 51
51 51 51
51 51 51
51 51 51
51 51 51
51 51 51
51 51 51
51 51 51
51 51 51
51 51 51
51 51 51
51 51 51
51 51 51
51 51 51
51 51 51
51 51 51
51 51 51
51 51 51
51 51 51
51 51 51
51 51 51
51 51 51
51 51 51
51 51 51
51 51 51
51 51 51
51 51 51
51 51 51
51 51 51
51 51 51
51 51 51
51 51 51
51 51 51
51 51 51
51 51 51
51 51 51
51 51 51
51 51 51
51 51 51
51 51 51
51 51 51
51 51 51
51 51 51
51 51 51
51 51 51
51 51 51
51 51 51
51 51 51
51 51 51
51 51 51
51 51 51
51 51 51
51 51 51
51 51 51
51 51 51
51 51 51
51 51 51
51 51 51
51 51 51
51 51 51
51 51 51
51 51 51
51 51 51
51 51 51
51 51 51
51 51 51
51 51 51
51 51 51
51 51 51
51 51 51
51 51 51
51 51 51
51 51 51
51 51 51
51 51 51
51 51 51
51 51 51
51 51 51
51 51 51
51 51 51
51 51 51
51 51 51
51 51 51
51 51 51
51 51 51
51 51 51
51 51 51
51 51 51
51 51 51
51 51 51
51 51 51
51 51 51
51 51 51
51 51 51
51 51 51
51 51 51
51 51 51
51 51 51
51 51 51
51 51 51
51 51 51
51 51 51
51 51 51
51 51 51
51 51 51
51 51 51
51 51 51
51 51 51
51 51 51
51 51 51
51 51 51
51 51 51
51 51 51
51 51 51
51 51 51
51 51 51
51 51 51
51 51 51
51 51 51
51 51 51
51 51 51
51 51 51
51 51 51
51 51 51
51 51 51
51 51 51
51 51 51
51 51 51
51 51 51
51 51 51
51 51 51
51 51 51
51 51 51
51 51 51
51 51 51
51 51 51
51 51 51
51 51 51
51 51 51
51 51 51
51 51 51
51 51 51
51 51 51
51 51 51
51 51 51
51 51 51
51 51 51
51 51 51
51 51 51
51 51 51
51 51 51
51 51 51
51 51 51
51 51 51
51 51 51
51 51 51
51 51 51
51 51 51
51 51 51
51 51 51
51 51 51
51 51 51
51 51 51
51 51 51
51 51 51
51 51 51
51 51 51
51 51 51
51 51 51
51 51 51
51 51 51
51 51 51
51 51 51
51 51 51
51 51 51
51 51 51
51 51 51
51 51 51
51 51 51
51 51 51
51 51 51
51 51 51
51 51 51
51 51 51
51 51 51
51 51 51
51 51 51
51 51 51
51 51 51
51 51 51
51 51 51
51 51 51
51 51 51
51 51 51
51 51 51
51 51 51
51 51 51
51 51 51
51 51 51
51 51 51
51 51 51
51 51 51
51 51 51
51 51 51
51 51 51
51 51 51
51 51 51
51 51 51
51 51 51
51 51 51
51 51 51
51 51 51
51 51 51
51 51 51
51 51 51
51 51 51
51 51 51
51 51 51
51 51 51
51 51 51
51 51 51
51 51 51
51 51 51
51 51 51
51 51 51
51 51 51
51 51 51
51 51 51
51 51 51
51 51 51
51 51 51
51 51 51
51 51 51
51 51 51
51 51 51
51 51 51
51 51 51
51 51 51
51 51 51
51 51 51
51 51 51
51 51 51
51 51 51
51 51 51
51 51 51
51 51 51
51 51 51
51 51 51
51 51 51
51 51 51
51 51 51
51 51 51
51 51 51
51 51 51
51 51 51
51 51 51
51 51 51
51 51 51
51 51 51
51 51 51
51 51 51
51 51 51
51 51 51
51 51 51
51 51 51
51 51 51
51 51 51
51 51 51
51 51 51
51 51 51
51 51 51
51 51 51
51 51 51
51 51 51
51 51 51
51 51 51
51 51 51
51 51 51
51 51 51
51 51 51
51 51 51
51 51 51
51 51 51
51 51 51
51 51 51
51 51 51
51 51 51
51 51 51
51 51 51
51 51 51
51 51 51
51 51 51
51 51 51
51 51 51
51 51 51
51 51 51
51 51 51
51 51 51
51 51 51
51 51 51
51 51 51
51 51 51
51 51 51
51 51 51
51 51 51
51 51 51
51 51 51
51 51 51
51 51 51
51 51 51
51 51 51
51 51 51
51 51 51
51 51 51
51 51 51
51 51 51
51 51 51
51 51 51
51 51 51
51 51 51
51 51 51
51 51 51
51 51 51
51 51 51
51 51 51
51 51 51
51 51 51
51 51 51
51 51 51
51 51 51
51 51 51
51 51 51
51 51 51
51 51 51
51 51 51
51 51 51
51 51 51
51 51 51
51 51 51
51 51 51
51 51 51
51 51 51
51 51 51
51 51 51
51 51 51
51 51 51
51 51 51
51 51 51
51 51 51
51 51 51
51 51 51
51 51 51
51 51 51
51 51 51
51 51 51
51 51 51
51 51 51
51 51 51
51 51 51
51 51 51
51 51 51
51 51 51
51 51 51
51 51 51
51 51 51
51 51 51
51 51 51
51 51 51
51 51 51
51 51 51
51 51 51
51 51 51
51 51 51
51 51 51
51 51 51
51 51 51
51 51 51
51 51 51
51 51 51
51 51 51
51 51 51
51 51 51
51 51 51
51 51 51
51 51 51
51 51 51
51 51 51
51 51 51
51 51 51
51 51 51
51 51 51
51 51 51
51 51 51
51 51 51
51 51 51
51 51 51
51 51 51
51 51 51
51 51 51
51 51 51
51 51 51
51 51 51
51 51 51
51 51 51
51 51 51
51 51 51
51 51 51
51 51 51
51 51 51
51 51 51
51 51 51
51 51 51
51 51 51
51 51 51
51 51 51
51 51 51
51 51 51
51 51 51
51 51 51
51 51 51
51 51 51
51 51 51
51 51 51
51 51 51
51 51 51
51 51 51
51 51 51
51 51 51
51 51 51
51 51 51
51 51 51
51 51 51
51 51 51
51 51 51
51 51 51
51 51 51
51 51 51
51 51 51
51 51 51
51 51 51
51 51 51
51 51 51
51 51 51
51 51 51
51 51 51
51 51 51
51 51 51
51 51 51
51 51 51
51 51 51
51 51 51
51 51 51
51 51 51
51 51 51
51 51 51
51 51 51
51 51 51
51 51 51
51 51 51
51 51 51
51 51 51
51 51 51
51 51 51
51 51 51
51 51 51
51 51 51
51 51 51
51 51 51
51 51 51
51 51 51
51 51 51
51 51 51
51 51 51
51 51 51
51 51 51
51 51 51
51 51 51
51 51 51
51 51 51
51 51 51
51 51 51
51 51 51
51 51 51
51 51 51
51 51 51
51 51 51
51 51 51
51 51 51
51 51 51
51 51 51
51 51 51
51 51 51
51 51 51
51 51 51
51 51 51
51 51 51
51 51 51
51 51 51
51 51 51
51 51 51
51 51 51
51 51 51
51 51 51
51 51 51
51 51 51
51 51 51
51 51 51
51 51 51
51 51 51
51 51 51
51 51 51
51 51 51
51 51 51
51 51 51
51 51 51
51 51 51
51 51 51
51 51 51
51 51 51
51 51 51
51 51 51
51 51 51
51 51 51
51 51 51
51 51 51
51 51 51
51 51 51
51 51 51
51 51 51
51 51 51
51 51 51
51 51 51
51 51 51
51 51 51
51 51 51
51 51 51
51 51 51
51 51 51
51 51 51
51 51 51
51 51 51
51 51 51
51 51 51
51 51 51
51 51 51
51 51 51
51 51 51
51 51 51
51 51 51
51 51 51
51 51 51
51 51 51
51 51 51
51 51 51
51 51 51
51 51 51
51 51 51
51 51 51
51 51 51
51 51 51
51 51 51
51 51 51
51 51 51
51 51 51
51 51 51
51 51 51
51 51 51
51 51 51
51 51 51
51 51 51
51 51 51
51 51 51
51 51 51
51 51 51
51 51 51
51 51 51
51 51 51
51 51 51
51 51 51
51 51 51
51 51 51
51 51 51
51 51 51
51 51 51
51 51 51
51 51 51
51 51 51
51 51 51
51 51 51
51 51 51
51 51 51
51 51 51
51 51 51
51 51 51
51 51 51
51 51 51
51 51 51
51 51 51
51 51 51
51 51 51
51 51 51
51 51 51
51 51 51
51 51 51
51 51 51
51 51 51
51 51 51
51 51 51
51 51 51
51 51 51
51 51 51
51 51 51
51 51 51
51 51 51
51 51 51
51 51 51
51 51 51
51 51 51
51 51 51
51 51 51
51 51 51
51 51 51
51 51 51
51 51 51
51 51 51
51 51 51
51 51 51
51 51 51
51 51 51
51 51 51
51 51 51
51 51 51
51 51 51
51 51 51
51 51 51
51 51 51
51 51 51
51 51 51
51 51 51
51 51 51
51 51 51
51 51 51
51 51 51
51 51 51
51 51 51
51 51 51
51 51 51
51 51 51
51 51 51
51 51 51
51 51 51
51 51 51
51 51 51
51 51 51
51 51 51
51 51 51
51 51 51
51 51 51
51 51 51
51 51 51
51 51 51
51 51 51
51 51 51
51 51 51
51 51 51
51 51 51
51 51 51
51 51 51
51 51 51
51 51 51
51 51 51
51 51 51
51 51 51
51 51 51
51 51 51
51 51 51
51 51 51
51 51 51
51 51 51
51 51 51
51 51 51
51 51 51
51 51 51
51 51 51
51 51 51
51 51 51
51 51 51
51 51 51
51 51 51
51 51 51
51 51 51
51 51 51
51 51 51
51 51 51
51 51 51
51 51 51
51 51 51
51 51 51
51 51 51
51 51 51
51 51 51
51 51 51
51 51 51
51 51 51
51 51 51
51 51 51
51 51 51
51 51 51
51 51 51
51 51 51
51 51 51
51 51 51
51 51 51
51 51 51
51 51 51
51 51 51
51 51 51
51 51 51
51 51 51
51 51 51
51 51 51
51 51 51
51 51 51
51 51 51
51 51 51
51 51 51
51 51 51
51 51 51
51 51 51
51 51 51
51 51 51
51 51 51
51 51 51
51 51 51
51 51 51
51 51 51
51 51 51
51 51 51
51 51 51
51 51 51
51 51 51
51 51 51
51 51 51
51 51 51
51 51 51
51 51 51
51 51 51
51 51 51
51 51 51
51 51 51
51 51 51
51 51 51
51 51 51
51 51 51
51 51 51
51 51 51
51 51 51
51 51 51
51 51 51
51 51 51
51 51 51
51 51 51
51 51 51
51 51 51
51 51 51
51 51 51
51 51 51
51 51 51
51 51 51
51 51 51
51 51 51
51 51 51
51 51 51
51 51 51
51 51 51
51 51 51
51 51 51
51 51 51
51 51 51
51 51 51
51 51 51
51 51 51
51 51 51
51 51 51
51 51 51
51 51 51
51 51 51
51 51 51
51 51 51
51 51 51
51 51 51
51 51 51
51 51 51
51 51 51
51 51 51
51 51 51
51 51 51
51 51 51
51 51 51
51 51 51
51 51 51
51 51 51
51 51 51
51 51 51
51 51 51
51 51 51
51 51 51
51 51 51
51 51 51
51 51 51
51 51 51
51 51 51
51 51 51
51 51 51
51 51 51
51 51 51
51 51 51
51 51 51
51 51 51
51 51 51
51 51 51
51 51 51
51 51 51
51 51 51
51 51 51
51 51 51
51 51 51
51 51 51
51 51 51
51 51 51
51 51 51
51 51 51
51 51 51
51 51 51
51 51 51
51 51 51
51 51 51
51 51 51
51 51 51
51 51 51
51 51 51
51 51 51
51 51 51
51 51 51
51 51 51
51 51 51
51 51 51
51 51 51
51 51 51
51 51 51
51 51 51
51 51 51
51 51 51
51 51 51
51 51 51
51 51 51
51 51 51
51 51 51
51 51 51
51 51 51
51 51 51
51 51 51
51 51 51
51 51 51
51 51 51
51 51 51
51 51 51
51 51 51
51 51 51
51 51 51
51 51 51
51 51 51
51 51 51
51 51 51
51 51 51
51 51 51
51 51 51
51 51 51
51 51 51
51 51 51
51 51 51
51 51 51
51 51 51
51 51 51
51 51 51
51 51 51
51 51 51
51 51 51
51 51 51
51 51 51
51 51 51
51 51 51
51 51 51
51 51 51
51 51 51
51 51 51
51 51 51
51 51 51
51 51 51
51 51 51
51 51 51
51 51 51
51 51 51
51 51 51
51 51 51
51 51 51
51 51 51
51 51 51
51 51 51
51 51 51
51 51 51
51 51 51
51 51 51
51 51 51
51 51 51
51 51 51
51 51 51
51 51 51
51 51 51
51 51 51
51 51 51
51 51 51
51 51 51
51 51 51
51 51 51
51 51 51
51 51 51
51 51 51
51 51 51
51 51 51
51 51 51
51 51 51
51 51 51
51 51 51
51 51 51
51 51 51
51 51 51
51 51 51
51 51 51
51 51 51
51 51 51
51 51 51
51 51 51
51 51 51
51 51 51
51 51 51
51 51 51
51 51 51
51 51 51
51 51 51
51 51 51
51 51 51
51 51 51
51 51 51
51 51 51
51 51 51
51 51 51
51 51 51
51 51 51
51 51 51
51 51 51
51 51 51
51 51 51
51 51 51
51 51 51
51 51 51
51 51 51
51 51 51
51 51 51
51 51 51
51 51 51
51 51 51
51 51 51
51 51 51
51 51 51
51 51 51
51 51 51
51 51 51
51 51 51
51 51 51
51 51 51
51 51 51
51 51 51
51 51 51
51 51 51
51 51 51
51 51 51
51 51 51
51 51 51
51 51 51
51 51 51
51 51 51
51 51 51
51 51 51
51 51 51
51 51 51
51 51 51
51 51 51
51 51 51
51 51 51
51 51 51
51 51 51
51 51 51
51 51 51
51 51 51
51 51 51
51 51 51
51 51 51
51 51 51
51 51 51
51 51 51
51 51 51
51 51 51
51 51 51
51 51 51
51 51 51
51 51 51
51 51 51
51 51 51
51 51 51
51 51 51
51 51 51
51 51 51
51 51 51
51 51 51
51 51 51
51 51 51
51 51 51
51 51 51
51 51 51
51 51 51
51 51 51
51 51 51
51 51 51
51 51 51
51 51 51
51 51 51
51 51 51
51 51 51
51 51 51
51 51 51
51 51 51
51 51 51
51 51 51
51 51 51
51 51 51
51 51 51
51 51 51
51 51 51
51 51 51
51 51 51
51 51 51
51 51 51
51 51 51
51 51 51
51 51 51
51 51 51
51 51 51
51 51 51
51 51 51
51 51 51
51 51 51
51 51 51
51 51 51
51 51 51
51 51 51
51 51 51
51 51 51
51 51 51
51 51 51
51 51 51
51 51 51
51 51 51
51 51 51
51 51 51
51 51 51
51 51 51
51 51 51
51 51 51
51 51 51
51 51 51
51 51 51
51 51 51
51 51 51
51 51 51
51 51 51
51 51 51
51 51 51
51 51 51
51 51 51
51 51 51
51 51 51
51 51 51
51 51 51
51 51 51
51 51 51
51 51 51
51 51 51
51 51 51
51 51 51
51 51 51
51 51 51
51 51 51
51 51 51
51 51 51
51 51 51
51 51 51
51 51 51
51 51 51
51 51 51
51 51 51
51 51 51
51 51 51
51 51 51
51 51 51
51 51 51
51 51 51
51 51 51
51 51 51
51 51 51
51 51 51
51 51 51
51 51 51
51 51 51
51 51 51
51 51 51
51 51 51
51 51 51
51 51 51
51 51 51
51 51 51
51 51 51
51 51 51
51 51 51
51 51 51
51 51 51
51 51 51
51 51 51
51 51 51
51 51 51
51 51 51
51 51 51
51 51 51
51 51 51
51 51 51
51 51 51
51 51 51
51 51 51
51 51 51
51 51 51
51 51 51
51 51 51
51 51 51
51 51 51
51 51 51
51 51 51
51 51 51
51 51 51
51 51 51
51 51 51
51 51 51
51 51 51
51 51 51
51 51 51
51 51 51
51 51 51
51 51 51
51 51 51
51 51 51
51 51 51
51 51 51
51 51 51
51 51 51
51 51 51
51 51 51
51 51 51
51 51 51
51 51 51
51 51 51
51 51 51
51 51 51
51 51 51
51 51 51
51 51 51
51 51 51
51 51 51
51 51 51
51 51 51
51 51 51
51 51 51
51 51 51
51 51 51
51 51 51
51 51 51
51 51 51
51 51 51
51 51 51
51 51 51
51 51 51
51 51 51
51 51 51
51 51 51
51 51 51
51 51 51
51 51 51
51 51 51
51 51 51
51 51 51
51 51 51
51 51 51
51 51 51
51 51 51
51 51 51
51 51 51
51 51 51
51 51 51
51 51 51
51 51 51
51 51 51
51 51 51
51 51 51
51 51 51
51 51 51
51 51 51
51 51 51
51 51 51
51 51 51
51 51 51
51 51 51
51 51 51
51 51 51
51 51 51
51 51 51
51 51 51
51 51 51
51 51 51
51 51 51
51 51 51
51 51 51
51 51 51
51 51 51
51 51 51
51 51 51
51 51 51
51 51 51
51 51 51
51 51 51
51 51 51
51 51 51
51 51 51
51 51 51
51 51 51
51 51 51
51 51 51
51 51 51
51 51 51
51 51 51
51 51 51
51 51 51
51 51 51
51 51 51
51 51 51
51 51 51
51 51 51
51 51 51
51 51 51
51 51 51
51 51 51
51 51 51
51 51 51
51 51 51
51 51 51
51 51 51
51 51 51
51 51 51
51 51 51
51 51 51
51 51 51
51 51 51
51 51 51
51 51 51
51 51 51
51 51 51
51 51 51
51 51 51
51 51 51
51 51 51
51 51 51
51 51 51
51 51 51
51 51 51
51 51 51
51 51 51
51 51 51
51 51 51
51 51 51
51 51 51
51 51 51
51 51 51
51 51 51
51 51 51
51 51 51
51 51 51
51 51 51
51 51 51
51 51 51
51 51 51
51 51 51
51 51 51
51 51 51
51 51 51
51 51 51
51 51 51
51 51 51
51 51 51
51 51 51
51 51 51
51 51 51
51 51 51
51 51 51
51 51 51
51 51 51
51 51 51
51 51 51
51 51 51
51 51 51
51 51 51
51 51 51
51 51 51
51 51 51
51 51 51
51 51 51
51 51 51
51 51 51
51 51 51
51 51 51
51 51 51
51 51 51
51 51 51
51 51 51
51 51 51
51 51 51
51 51 51
51 51 51
51 51 51
51 51 51
51 51 51
51 51 51
51 51 51
51 51 51
51 51 51
51 51 51
51 51 51
51 51 51
51 51 51
51 51 51
51 51 51
51 51 51
51 51 51
51 51 51
51 51 51
51 51 51
51 51 51
51 51 51
51 51 51
51 51 51
51 51 51
51 51 51
51 51 51
51 51 51
51 51 51
51 51 51
51 51 51
51 51 51
51 51 51
51 51 51
51 51 51
51 51 51
51 51 51
51 51 51
51 51 51
51 51 51
51 51 51
51 51 51
51 51 51
51 51 51
51 51 51
51 51 51
51 51 51
51 51 51
51 51 51
51 51 51
51 51 51
51 51 51
51 51 51
51 51 51
51 51 51
51 51 51
51 51 51
51 51 51
51 51 51
51 51 51
51 51 51
51 51 51
51 51 51
51 51 51
51 51 51
51 51 51
51 51 51
51 51 51
51 51 51
51 51 51
51 51 51
51 51 51
51 51 51
51 51 51
51 51 51
51 51 51
51 51 51
51 51 51
51 51 51
51 51 51
51 51 51
51 51 51
51 51 51
51 51 51
51 51 51
51 51 51
51 51 51
51 51 51
51 51 51
51 51 51
51 51 51
51 51 51
51 51 51
51 51 51
51 51 51
51 51 51
51 51 51
51 51 51
51 51 51
51 51 51
51 51 51
51 51 51
51 51 51
51 51 51
51 51 51
51 51 51
51 51 51
51 51 51
51 51 51
51 51 51
51 51 51
51 51 51
51 51 51
51 51 51
51 51 51
51 51 51
51 51 51
51 51 51
51 51 51
51 51 51
51 51 51
51 51 51
51 51 51
51 51 51
51 51 51
51 51 51
51 51 51
51 51 51
51 51 51
51 51 51
51 51 51
51 51 51
51 51 51
51 51 51
51 51 51
51 51 51
51 51 51
51 51 51
51 51 51
51 51 51
51 51 51
51 51 51
51 51 51
51 51 51
51 51 51
51 51 51
51 51 51
51 51 51
51 51 51
51 51 51
51 51 51
51 51 51
51 51 51
51 51 51
51 51 51
51 51 51
51 51 51
51 51 51
51 51 51
51 51 51
51 51 51
51 51 51
51 51 51
51 51 51
51 51 51
51 51 51
51 51 51
51 51 51
51 51 51
51 51 51
51 51 51
51 51 51
51 51 51
51 51 51
51 51 51
51 51 51
51 51 51
51 51 51
51 51 51
51 51 51
51 51 51
51 51 51
51 51 51
51 51 51
51 51 51
51 51 51
51 51 51
51 51 51
51 51 51
51 51 51
51 51 51
51 51 51
51 51 51
51 51 51
51 51 51
51 51 51
51 51 51
51 51 51
51 51 51
51 51 51
51 51 51
51 51 51
51 51 51
51 51 51
51 51 51
51 51 51
51 51 51
51 51 51
51 51 51
51 51 51
51 51 51
51 51 51
51 51 51
51 51 51
51 51 51
51 51 51
51 51 51
51 51 51
51 51 51
51 51 51
51 51 51
51 51 51
51 51 51
51 51 51
51 51 51
51 51 51
51 51 51
51 51 51
51 51 51
51 51 51
51 51 51
51 51 51
51 51 51
51 51 51
51 51 51
51 51 51
51 51 51
51 51 51
51 51 51
51 51 51
51 51 51
51 51 51
51 51 51
51 51 51
51 51 51
51 51 51
51 51 51
51 51 51
51 51 51
51 51 51
51 51 51
51 51 51
51 51 51
51 51 51
51 51 51
51 51 51
51 51 51
51 51 51
51 51 51
51 51 51
51 51 51
51 51 51
51 51 51
51 51 51
51 51 51
51 51 51
51 51 51
51 51 51
51 51 51
51 51 51
51 51 51
51 51 51
51 51 51
51 51 51
51 51 51
51 51 51
51 51 51
51 51 51
51 51 51
51 51 51
51 51 51
51 51 51
51 51 51
51 51 51
51 51 51
51 51 51
51 51 51
51 51 51
51 51 51
51 51 51
51 51 51
51 51 51
51 51 51
51 51 51
51 51 51
51 51 51
51 51 51
51 51 51
51 51 51
51 51 51
51 51 51
51 51 51
51 51 51
51 51 51
51 51 51
51 51 51
51 51 51
51 51 51
51 51 51
51 51 51
51 51 51
51 51 51
51 51 51
51 51 51
51 51 51
51 51 51
51 51 51
51 51 51
51 51 51
51 51 51
51 51 51
51 51 51
51 51 51
51 51 51
51 51 51
51 51 51
51 51 51
51 51 51
51 51 51
51 51 51
51 51 51
51 51 51
51 51 51
51 51 51
51 51 51
51 51 51
51 51 51
51 51 51
51 51 51
51 51 51
51 51 51
51 51 51
51 51 51
51 51 51
51 51 51
51 51 51
51 51 51
51 51 51
51 51 51
51 51 51
51 51 51
51 51 51
51 51 51
51 51 51
51 51 51
51 51 51
51 51 51
51 51 51
51 51 51
51 51 51
51 51 51
51 51 51
51 51 51
51 51 51
51 51 51
51 51 51
51 51 51
51 51 51
51 51 51
51 51 51
51 51 51
51 51 51
51 51 51
51 51 51
51 51 51
51 51 51
51 51 51
51 51 51
51 51 51
51 51 51
51 51 51
51 51 51
51 51 51
51 51 51
51 51 51
51 51 51
51 51 51
51 51 51
51 51 51
51 51 51
51 51 51
51 51 51
51 51 51
51 51 51
51 51 51
51 51 51
51 51 51
51 51 51
51 51 51
51 51 51
51 51 51
51 51 51
51 51 51
51 51 51
51 51 51
51 51 51
51 51 51
51 51 51
51 51 51
51 51 51
51 51 51
51 51 51
51 51 51
51 51 51
51 51 51
51 51 51
51 51 51
51 51 51
51 51 51
51 51 51
51 51 51
51 51 51
51 51 51
51 51 51
51 51 51
51 51 51
51 51 51
51 51 51
51 51 51
51 51 51
51 51 51
51 51 51
51 51 51
51 51 51
51 51 51
51 51 51
51 51 51
51 51 51
51 51 51
51 51 51
51 51 51
51 51 51
51 51 51
51 51 51
51 51 51
51 51 51
51 51 51
51 51 51
51 51 51
51 51 51
51 51 51
51 51 51
51 51 51
51 51 51
51 51 51
51 51 51
51 51 51
51 51 51
51 51 51
51 51 51
51 51 51
51 51 51
51 51 51
51 51 51
51 51 51
51 51 51
51 51 51
51 51 51
51 51 51
51 51 51
51 51 51
51 51 51
51 51 51
51 51 51
51 51 51
51 51 51
51 51 51
51 51 51
51 51 51
51 51 51
51 51 51
51 51 51
51 51 51
51 51 51
51 51 51
51 51 51
51 51 51
51 51 51
51 51 51
51 51 51
51 51 51
51 51 51
51 51 51
51 51 51
51 51 51
51 51 51
51 51 51
51 51 51
51 51 51
51 51 51
51 51 51
51 51 51
51 51 51
51 51 51
51 51 51
51 51 51
51 51 51
51 51 51
51 51 51
51 51 51
51 51 51
51 51 51
51 51 51
51 51 51
51 51 51
51 51 51
51 51 51
51 51 51
51 51 51
51 51 51
51 51 51
51 51 51
51 51 51
51 51 51
51 51 51
51 51 51
51 51 51
51 51 51
51 51 51
51 51 51
51 51 51
51 51 51
51 51 51
51 51 51
51 51 51
51 51 51
51 51 51
51 51 51
51 51 51
51 51 51
51 51 51
51 51 51
51 51 51
51 51 51
51 51 51
51 51 51
51 51 51
51 51 51
51 51 51
51 51 51
51 51 51
51 51 51
51 51 51
51 51 51
51 51 51
51 51 51
51 51 51
51 51 51
51 51 51
51 51 51
51 51 51
51 51 51
51 51 51
51 51 51
51 51 51
51 51 51
51 51 51
51 51 51
51 51 51
51 51 51
51 51 51
51 51 51
51 51 51
51 51 51
51 51 51
51 51 51
51 51 51
51 51 51
51 51 51
51 51 51
51 51 51
51 51 51
51 51 51
51 51 51
51 51 51
51 51 51
51 51 51
51 51 51
51 51 51
51 51 51
51 51 51
51 51 51
51 51 51
51 51 51
51 51 51
51 51 51
51 51 51
51 51 51
51 51 51
51 51 51
51 51 51
51 51 51
51 51 51
51 51 51
51 51 51
51 51 51
51 51 51
51 51 51
51 51 51
51 51 51
51 51 51
51 51 51
51 51 51
51 51 51
51 51 51
51 51 51
51 51 51
51 51 51
51 51 51
51 51 51
51 51 51
51 51 51
51 51 51
51 51 51
51 51 51
51 51 51
51 51 51
51 51 51
51 51 51
51 51 51
51 51 51
51 51 51
51 51 51
51 51 51
51 51 51
51 51 51
51 51 51
51 51 51
51 51 51
51 51 51
51 51 51
51 51 51
51 51 51
51 51 51
51 51 51
51 51 51
51 51 51
51 51 51
51 51 51
51 51 51
51 51 51
51 51 51
51 51 51
51 51 51
51 51 51
51 51 51
51 51 51
51 51 51
51 51 51
51 51 51
51 51 51
51 51 51
51 51 51
51 51 51
51 51 51
51 51 51
51 51 51
51 51 51
51 51 51
51 51 51
51 51 51
51 51 51
51 51 51
51 51 51
51 51 51
51 51 51
51 51 51
51 51 51
51 51 51
51 51 51
51 51 51
51 51 51
51 51 51
51 51 51
51 51 51
51 51 51
51 51 51
51 51 51
51 51 51
51 51 51
51 51 51
51 51 51
51 51 51
51 51 51
51 51 51
51 51 51
51 51 51
51 51 51
51 51 51
51 51 51
51 51 51
51 51 51
51 51 51
51 51 51
51 51 51
51 51 51
51 51 51
51 51 51
51 51 51
51 51 51
51 51 51
51 51 51
51 51 51
51 51 51
51 51 51
51 51 51
51 51 51
51 51 51
51 51 51
51 51 51
51 51 51
51 51 51
51 51 51
51 51 51
51 51 51
51 51 51
51 51 51
51 51 51
51 51 51
51 51 51
51 51 51
51 51 51
51 51 51
51 51 51
51 51 51
51 51 51
51 51 51
51 51 51
51 51 51
51 51 51
51 51 51
51 51 51
51 51 51
51 51 51
51 51 51
51 51 51
51 51 51
51 51 51
51 51 51
51 51 51
51 51 51
51 51 51
51 51 51
51 51 51
51 51 51
51 51 51
51 51 51
51 51 51
51 51 51
51 51 51
51 51 51
51 51 51
51 51 51
51 51 51
51 51 51
51 51 51
51 51 51
51 51 51
51 51 51
51 51 51
51 51 51
51 51 51
51 51 51
51 51 51
51 51 51
51 51 51
51 51 51
51 51 51
51 51 51
51 51 51
51 51 51
51 51 51
51 51 51
51 51 51
51 51 51
51 51 51
51 51 51
51 51 51
51 51 51
51 51 51
51 51 51
51 51 51
51 51 51
51 51 51
51 51 51
51 51 51
51 51 51
51 51 51
51 51 51
51 51 51
51 51 51
51 51 51
51 51 51
51 51 51
51 51 51
51 51 51
51 51 51
51 51 51
51 51 51
51 51 51
51 51 51
51 51 51
51 51 51
51 51 51
51 51 51
51 51 51
51 51 51
51 51 51
51 51 51
51 51 51
51 51 51
51 51 51
51 51 51
51 51 51
51 51 51
51 51 51
51 51 51
51 51 51
51 51 51
51 51 51
51 51 51
51 51 51
51 51 51
51 51 51
51 51 51
51 51 51
51 51 51
51 51 51
51 51 51
51 51 51
51 51 51
51 51 51
51 51 51
51 51 51
51 51 51
51 51 51
51 51 51
51 51 51
51 51 51
51 51 51
51 51 51
51 51 51
51 51 51
51 51 51
51 51 51
51 51 51
51 51 51
51 51 51
51 51 51
51 51 51
51 51 51
51 51 51
51 51 51
51 51 51
51 51 51
51 51 51
51 51 51
51 51 51
51 51 51
51 51 51
51 51 51
51 51 51
51 51 51
51 51 51
51 51 51
51 51 51
51 51 51
51 51 51
51 51 51
51 51 51
51 51 51
51 51 51
51 51 51
51 51 51
51 51 51
51 51 51
51 51 51
51 51 51
51 51 51
51 51 51
51 51 51
51 51 51
51 51 51
51 51 51
51 51 51
51 51 51
51 51 51
51 51 51
51 51 51
51 51 51
51 51 51
51 51 51
51 51 51
51 51 51
51 51 51
51 51 51
51 51 51
51 51 51
51 51 51
51 51 51
51 51 51
51 51 51
51 51 51
51 51 51
51 51 51
51 51 51
51 51 51
51 51 51
51 51 51
51 51 51
51 51 51
51 51 51
51 51 51
51 51 51
51 51 51
51 51 51
51 51 51
51 51 51
51 51 51
51 51 51
51 51 51
51 51 51
51 51 51
51 51 51
51 51 51
51 51 51
51 51 51
51 51 51
51 51 51
51 51 51
51 51 51
51 51 51
51 51 51
51 51 51
51 51 51
51 51 51
51 51 51
51 51 51
51 51 51
51 51 51
51 51 51
51 51 51
51 51 51
51 51 51
51 51 51
51 51 51
51 51 51
51 51 51
51 51 51
51 51 51
51 51 51
51 51 51
51 51 51
51 51 51
51 51 51
51 51 51
51 51 51
51 51 51
51 51 51
51 51 51
51 51 51
51 51 51
51 51 51
51 51 51
51 51 51
51 51 51
51 51 51
51 51 51
51 51 51
51 51 51
51 51 51
51 51 51
51 51 51
51 51 51
51 51 51
51 51 51
51 51 51
51 51 51
51 51 51
51 51 51
51 51 51
51 51 51
51 51 51
51 51 51
51 51 51
51 51 51
51 51 51
51 51 51
51 51 51
51 51 51
51 51 51
51 51 51
51 51 51
51 51 51
51 51 51
51 51 51
51 51 51
51 51 51
51 51 51
51 51 51
51 51 51
51 51 51
51 51 51
51 51 51
51 51 51
51 51 51
51 51 51
51 51 51
51 51 51
51 51 51
51 51 51
51 51 51
51 51 51
51 51 51
51 51 51
51 51 51
51 51 51
51 51 51
51 51 51
51 51 51
51 51 51
51 51 51
51 51 51
51 51 51
51 51 51
51 51 51
51 51 51
51 51 51
51 51 51
51 51 51
51 51 51
51 51 51
51 51 51
51 51 51
51 51 51
51 51 51
51 51 51
51 51 51
51 51 51
51 51 51
51 51 51
51 51 51
51 51 51
51 51 51
51 51 51
51 51 51
51 51 51
51 51 51
51 51 51
51 51 51
51 51 51
51 51 51
51 51 51
51 51 51
51 51 51
51 51 51
51 51 51
51 51 51
51 51 51
51 51 51
51 51 51
51 51 51
51 51 51
51 51 51
51 51 51
51 51 51
51 51 51
51 51 51
51 51 51
51 51 51
51 51 51
51 51 51
51 51 51
51 51 51
51 51 51
51 51 51
51 51 51
51 51 51
51 51 51
51 51 51
51 51 51
51 51 51
51 51 51
51 51 51
51 51 51
51 51 51
51 51 51
51 51 51
51 51 51
51 51 51
51 51 51
51 51 51
51 51 51
51 51 51
51 51 51
51 51 51
51 51 51
51 51 51
51 51 51
51 51 51
51 51 51
51 51 51
51 51 51
51 51 51
51 51 51
51 51 51
51 51 51
51 51 51
51 51 51
51 51 51
51 51 51
51 51 51
51 51 51
51 51 51
51 51 51
51 51 51
51 51 51
51 51 51
51 51 51
51 51 51
51 51 51
51 51 51
51 51 51
51 51 51
51 51 51
51 51 51
51 51 51
51 51 51
51 51 51
51 51 51
51 51 51
51 51 51
51 51 51
51 51 51
51 51 51
51 51 51
51 51 51
51 51 51
51 51 51
51 51 51
51 51 51
51 51 51
51 51 51
51 51 51
51 51 51
51 51 51
51 51 51
51 51 51
51 51 51
51 51 51
51 51 51
51 51 51
51 51 51
51 51 51
51 51 51
51 51 51
51 51 51
51 51 51
51 51 51
51 51 51
51 51 51
51 51 51
51 51 51
51 51 51
51 51 51
51 51 51
51 51 51
51 51 51
51 51 51
51 51 51
51 51 51
51 51 51
51 51 51
51 51 51
51 51 51
51 51 51
51 51 51
51 51 51
51 51 51
51 51 51
51 51 51
51 51 51
51 51 51
51 51 51
51 51 51
51 51 51
51 51 51
51 51 51
51 51 51
51 51 51
51 51 51
51 51 51
51 51 51
51 51 51
51 51 51
51 51 51
51 51 51
51 51 51
51 51 51
51 51 51
51 51 51
51 51 51
51 51 51
51 51 51
51 51 51
51 51 51
51 51 51
51 51 51
51 51 51
51 51 51
51 51 51
51 51 51
51 51 51
51 51 51
51 51 51
51 51 51
51 51 51
51 51 51
51 51 51
51 51 51
51 51 51
51 51 51
51 51 51
51 51 51
51 51 51
51 51 51
51 51 51
51 51 51
51 51 51
51 51 51
51 51 51
51 51 51
51 51 51
51 51 51
51 51 51
51 51 51
51 51 51
51 51 51
51 51 51
51 51 51
51 51 51
51 51 51
51 51 51
51 51 51
51 51 51
51 51 51
51 51 51
51 51 51
51 51 51
51 51 51
51 51 51
51 51 51
51 51 51
51 51 51
51 51 51
51 51 51
51 51 51
51 51 51
51 51 51
51 51 51
51 51 51
51 51 51
51 51 51
51 51 51
51 51 51
51 51 51
51 51 51
51 51 51
51 51 51
51 51 51
51 51 51
51 51 51
51 51 51
51 51 51
51 51 51
51 51 51
51 51 51
51 51 51
51 51 51
51 51 51
51 51 51
51 51 51
51 51 51
51 51 51
51 51 51
51 51 51
51 51 51
51 51 51
51 51 51
51 51 51
51 51 51
51 51 51
51 51 51
51 51 51
51 51 51
51 51 51
51 51 51
51 51 51
51 51 51
51 51 51
51 51 51
51 51 51
51 51 51
51 51 51
51 51 51
51 51 51
51 51 51
51 51 51
51 51 51
51 51 51
51 51 51
51 51 51
51 51 51
51 51 51
51 51 51
51 51 51
51 51 51
51 51 51
51 51 51
51 51 51
51 51 51
51 51 51
51 51 51
51 51 51
51 51 51
51 51 51
51 51 51
51 51 51
51 51 51
51 51 51
51 51 51
51 51 51
51 51 51
51 51 51
51 51 51
51 51 51
51 51 51
51 51 51
51 51 51
51 51 51
51 51 51
51 51 51
51 51 51
51 51 51
51 51 51
51 51 51
51 51 51
51 51 51
51 51 51
51 51 51
51 51 51
51 51 51
51 51 51
51 51 51
51 51 51
51 51 51
51 51 51
51 51 51
51 51 51
51 51 51
51 51 51
51 51 51
51 51 51
51 51 51
51 51 51
51 51 51
51 51 51
51 51 51
51 51 51
51 51 51
51 51 51
51 51 51
51 51 51
51 51 51
51 51 51
51 51 51
51 51 51
51 51 51
51 51 51
51 51 51
51 51 51
51 51 51
51 51 51
51 51 51
51 51 51
51 51 51
51 51 51
51 51 51
51 51 51
51 51 51
51 51 51
51 51 51
51 51 51
51 51 51
51 51 51
51 51 51
51 51 51
51 51 51
51 51 51
51 51 51
51 51 51
51 51 51
51 51 51
51 51 51
51 51 51
51 51 51
51 51 51
51 51 51
51 51 51
51 51 51
51 51 51
51 51 51
51 51 51
51 51 51
51 51 51
51 51 51
51 51 51
51 51 51
51 51 51
51 51 51
51 51 51
51 51 51
51 51 51
51 51 51
51 51 51
51 51 51
51 51 51
51 51 51
51 51 51
51 51 51
51 51 51
51 51 51
51 51 51
51 51 51
51 51 51
51 51 51
51 51 51
51 51 51
51 51 51
51 51 51
51 51 51
51 51 51
51 51 51
51 51 51
51 51 51
51 51 51
51 51 51
51 51 51
51 51 51
51 51 51
51 51 51
51 51 51
51 51 51
51 51 51
51 51 51
51 51 51
51 51 51
51 51 51
51 51 51
51 51 51
51 51 51
51 51 51
51 51 51
51 51 51
51 51 51
51 51 51
51 51 51
51 51 51
51 51 51
51 51 51
51 51 51
51 51 51
51 51 51
51 51 51
51 51 51
51 51 51
51 51 51
51 51 51
51 51 51
51 51 51
51 51 51
51 51 51
51 51 51
51 51 51
51 51 51
51 51 51
51 51 51
51 51 51
51 51 51
51 51 51
51 51 51
51 51 51
51 51 51
51 51 51
51 51 51
51 51 51
51 51 51
51 51 51
51 51 51
51 51 51
51 51 51
51 51 51
51 51 51
51 51 51
51 51 51
51 51 51
51 51 51
51 51 51
51 51 51
51 51 51
51 51 51
51 51 51
51 51 51
51 51 51
51 51 51
51 51 51
51 51 51
51 51 51
51 51 51
51 51 51
51 51 51
51 51 51
51 51 51
51 51 51
51 51 51
51 51 51
51 51 51
51 51 51
51 51 51
51 51 51
51 51 51
51 51 51
51 51 51
51 51 51
51 51 51
51 51 51
51 51 51
51 51 51
51 51 51
51 51 51
51 51 51
51 51 51
51 51 51
51 51 51
51 51 51
51 51 51
51 51 51
51 51 51
51 51 51
51 51 51
51 51 51
51 51 51
51 51 51
51 51 51
51 51 51
51 51 51
51 51 51
51 51 51
51 51 51
51 51 51
51 51 51
51 51 51
51 51 51
51 51 51
51 51 51
51 51 51
51 51 51
51 51 51
51 51 51
51 51 51
51 51 51
51 51 51
51 51 51
51 51 51
51 51 51
51 51 51
51 51 51
51 51 51
51 51 51
51 51 51
51 51 51
51 51 51
51 51 51
51 51 51
51 51 51
51 51 51
51 51 51
51 51 51
51 51 51
51 51 51
51 51 51
51 51 51
51 51 51
51 51 51
51 51 51
51 51 51
51 51 51
51 51 51
51 51 51
51 51 51
51 51 51
51 51 51
51 51 51
51 51 51
51 51 51
51 51 51
51 51 51
51 51 51
51 51 51
51 51 51
51 51 51
51 51 51
51 51 51
51 51 51
51 51 51
51 51 51
51 51 51
51 51 51
51 51 51
51 51 51
51 51 51
51 51 51
51 51 51
51 51 51
51 51 51
51 51 51
51 51 51
51 51 51
51 51 51
51 51 51
51 51 51
51 51 51
51 51 51
51 51 51
51 51 51
51 51 51
51 51 51
51 51 51
51 51 51
51 51 51
51 51 51
51 51 51
51 51 51
51 51 51
51 51 51
51 51 51
51 51 51
51 51 51
51 51 51
51 51 51
51 51 51
51 51 51
51 51 51
51 51 51
51 51 51
51 51 51
51 51 51
51 51 51
51 51 51
51 51 51
51 51 51
51 51 51
51 51 51
51 51 51
51 51 51
51 51 51
51 51 51
51 51 51
51 51 51
51 51 51
51 51 51
51 51 51
51 51 51
51 51 51
51 51 51
51 51 51
51 51 51
51 51 51
51 51 51
51 51 51
51 51 51
51 51 51
51 51 51
51 51 51
51 51 51
51 51 51
51 51 51
51 51 51
51 51 51
51 51 51
51 51 51
51 51 51
51 51 51
51 51 51
51 51 51
51 51 51
51 51 51
51 51 51
51 51 51
51 51 51
51 51 51
51 51 51
51 51 51
51 51 51
51 51 51
51 51 51
51 51 51
51 51 51
51 51 51
51 51 51
51 51 51
51 51 51
51 51 51
51 51 51
51 51 51
51 51 51
51 51 51
51 51 51
51 51 51
51 51 51
51 51 51
51 51 51
51 51 51
51 51 51
51 51 51
51 51 51
51 51 51
51 51 51
51 51 51
51 51 51
51 51 51
51 51 51
51 51 51
51 51 51
51 51 51
51 51 51
51 51 51
51 51 51
51 51 51
51 51 51
51 51 51
51 51 51
51 51 51
51 51 51
51 51 51
51 51 51
51 51 51
51 51 51
51 51 51
51 51 51
51 51 51
51 51 51
51 51 51
51 51 51
51 51 51
51 51 51
51 51 51
51 51 51
51 51 51
51 51 51
51 51 51
51 51 51
51 51 51
51 51 51
51 51 51
51 51 51
51 51 51
51 51 51
51 51 51
51 51 51
51 51 51
51 51 51
51 51 51
51 51 51
51 51 51
51 51 51
51 51 51
51 51 51
51 51 51
51 51 51
51 51 51
51 51 51
51 51 51
51 51 51
51 51 51
51 51 51
51 51 51
51 51 51
51 51 51
51 51 51
51 51 51
51 51 51
51 51 51
51 51 51
51 51 51
51 51 51
51 51 51
51 51 51
51 51 51
51 51 51
51 51 51
51 51 51
51 51 51
51 51 51
51 51 51
51 51 51
51 51 51
51 51 51
51 51 51
51 51 51
51 51 51
51 51 51
51 51 51
51 51 51
51 51 51
51 51 51
51 51 51
51 51 51
51 51 51
51 51 51
51 51 51
51 51 51
51 51 51
51 51 51
51 51 51
51 51 51
51 51 51
51 51 51
51 51 51
51 51 51
51 51 51
51 51 51
51 51 51
51 51 51
51 51 51
51 51 51
51 51 51
51 51 51
51 51 51
51 51 51
51 51 51
51 51 51
51 51 51
51 51 51
51 51 51
51 51 51
51 51 51
51 51 51
51 51 51
51 51 51
51 51 51
51 51 51
51 51 51
51 51 51
51 51 51
51 51 51
51 51 51
51 51 51
51 51 51
51 51 51
51 51 51
51 51 51
51 51 51
51 51 51
51 51 51
51 51 51
51 51 51
51 51 51
51 51 51
51 51 51
51 51 51
51 51 51
51 51 51
51 51 51
51 51 51
51 51 51
51 51 51
51 51 51
51 51 51
51 51 51
51 51 51
51 51 51
51 51 51
51 51 51
51 51 51
51 51 51
51 51 51
51 51 51
51 51 51
51 51 51
51 51 51
51 51 51
51 51 51
51 51 51
51 51 51
51 51 51
51 51 51
51 51 51
51 51 51
51 51 51
51 51 51
51 51 51
51 51 51
51 51 51
51 51 51
51 51 51
51 51 51
51 51 51
51 51 51
51 51 51
51 51 51
51 51 51
51 51 51
51 51 51
51 51 51
51 51 51
51 51 51
51 51 51
51 51 51
51 51 51
51 51 51
51 51 51
51 51 51
51 51 51
51 51 51
51 51 51
51 51 51
51 51 51
51 51 51
51 51 51
51 51 51
51 51 51
51 51 51
51 51 51
51 51 51
51 51 51
51 51 51
51 51 51
51 51 51
51 51 51
51 51 51
51 51 51
51 51 51
51 51 51
51 51 51
51 51 51
51 51 51
51 51 51
51 51 51
51 51 51
51 51 51
51 51 51
51 51 51
51 51 51
51 51 51
51 51 51
51 51 51
51 51 51
51 51 51
51 51 51
51 51 51
51 51 51
51 51 51
51 51 51
51 51 51
51 51 51
51 51 51
51 51 51
51 51 51
51 51 51
51 51 51
51 51 51
51 51 51
51 51 51
51 51 51
51 51 51
51 51 51
51 51 51
51 51 51
51 51 51
51 51 51
51 51 51
51 51 51
51 51 51
51 51 51
51 51 51
51 51 51
51 51 51
51 51 51
51 51 51
51 51 51
51 51 51
51 51 51
51 51 51
51 51 51
51 51 51
51 51 51
51 51 51
51 51 51
51 51 51
51 51 51
51 51 51
51 51 51
51 51 51
51 51 51
51 51 51
51 51 51
51 51 51
51 51 51
51 51 51
51 51 51
51 51 51
51 51 51
51 51 51
51 51 51
51 51 51
51 51 51
51 51 51
51 51 51
51 51 51
51 51 51
51 51 51
51 51 51
51 51 51
51 51 51
51 51 51
51 51 51
51 51 51
51 51 51
51 51 51
51 51 51
51 51 51
51 51 51
51 51 51
51 51 51
51 51 51
51 51 51
51 51 51
51 51 51
51 51 51
51 51 51
51 51 51
51 51 51
51 51 51
51 51 51
51 51 51
51 51 51
51 51 51
51 51 51
51 51 51
51 51 51
51 51 51
51 51 51
51 51 51
51 51 51
51 51 51
51 51 51
51 51 51
51 51 51
51 51 51
51 51 51
51 51 51
51 51 51
51 51 51
51 51 51
51 51 51
51 51 51
51 51 51
51 51 51
51 51 51
51 51 51
51 51 51
51 51 51
51 51 51
51 51 51
51 51 51
51 51 51
51 51 51
51 51 51
51 51 51
51 51 51
51 51 51
51 51 51
51 51 51
51 51 51
51 51 51
51 51 51
51 51 51
51 51 51
51 51 51
51 51 51
51 51 51
51 51 51
51 51 51
51 51 51
51 51 51
51 51 51
51 51 51
51 51 51
51 51 51
51 51 51
51 51 51
51 51 51
51 51 51
51 51 51
51 51 51
51 51 51
51 51 51
51 51 51
51 51 51
51 51 51
51 51 51
51 51 51
51 51 51
51 51 51
51 51 51
51 51 51
51 51 51
51 51 51
51 51 51
51 51 51
51 51 51
51 51 51
51 51 51
51 51 51
51 51 51
51 51 51
51 51 51
51 51 51
51 51 51
51 51 51
51 51 51
51 51 51
51 51 51
51 51 51
51 51 51
51 51 51
51 51 51
51 51 51
51 51 51
51 51 51
51 51 51
51 51 51
51 51 51
51 51 51
51 51 51
51 51 51
51 51 51
51 51 51
51 51 51
51 51 51
51 51 51
51 51 51
51 51 51
51 51 51
51 51 51
51 51 51
51 51 51
51 51 51
51 51 51
51 51 51
51 51 51
51 51 51
51 51 51
51 51 51
51 51 51
51 51 51
51 51 51
51 51 51
51 51 51
51 51 51
51 51 51
51 51 51
51 51 51
51 51 51
51 51 51
51 51 51
51 51 51
51 51 51
51 51 51
51 51 51
51 51 51
51 51 51
51 51 51
51 51 51
51 51 51
51 51 51
51 51 51
51 51 51
51 51 51
51 51 51
51 51 51
51 51 51
51 51 51
51 51 51
51 51 51
51 51 51
51 51 51
51 51 51
51 51 51
51 51 51
51 51 51
51 51 51
51 51 51
51 51 51
51 51 51
51 51 51
51 51 51
51 51 51
51 51 51
51 51 51
51 51 51
51 51 51
51 51 51
51 51 51
51 51 51
51 51 51
51 51 51
51 51 51
51 51 51
51 51 51
51 51 51
51 51 51
51 51 51
51 51 51
51 51 51
51 51 51
51 51 51
51 51 51
51 51 51
51 51 51
51 51 51
51 51 51
51 51 51
51 51 51
51 51 51
51 51 51
51 51 51
51 51 51
51 51 51
51 51 51
51 51 51
51 51 51
51 51 51
51 51 51
51 51 51
51 51 51
51 51 51
51 51 51
51 51 51
51 51 51
51 51 51
51 51 51
51 51 51
51 51 51
51 51 51
51 51 51
51 51 51
51 51 51
51 51 51
51 51 51
51 51 51
51 51 51
51 51 51
51 51 51
51 51 51
51 51 51
51 51 51
51 51 51
51 51 51
51 51 51
51 51 51
51 51 51
51 51 51
51 51 51
51 51 51
51 51 51
51 51 51
51 51 51
51 51 51
51 51 51
51 51 51
51 51 51
51 51 51
51 51 51
51 51 51
51 51 51
51 51 51
51 51 51
51 51 51
51 51 51
51 51 51
51 51 51
51 51 51
51 51 51
51 51 51
51 51 51
51 51 51
51 51 51
51 51 51
51 51 51
51 51 51
51 51 51
51 51 51
51 51 51
51 51 51
51 51 51
51 51 51
51 51 51
51 51 51
51 51 51
51 51 51
51 51 51
51 51 51
51 51 51
51 51 51
51 51 51
51 51 51
51 51 51
51 51 51
51 51 51
51 51 51
51 51 51
51 51 51
51 51 51
51 51 51
51 51 51
51 51 51
51 51 51
51 51 51
51 51 51
51 51 51
51 51 51
51 51 51
51 51 51
51 51 51
51 51 51
51 51 51
51 51 51
51 51 51
51 51 51
51 51 51
51 51 51
51 51 51
51 51 51
51 51 51
51 51 51
51 51 51
51 51 51
51 51 51
51 51 51
51 51 51
51 51 51
51 51 51
51 51 51
51 51 51
51 51 51
51 51 51
51 51 51
51 51 51
51 51 51
51 51 51
51 51 51
51 51 51
51 51 51
51 51 51
51 51 51
51 51 51
51 51 51
51 51 51
51 51 51
51 51 51
51 51 51
51 51 51
51 51 51
51 51 51
51 51 51
51 51 51
51 51 51
51 51 51
51 51 51
51 51 51
51 51 51
51 51 51
51 51 51
51 51 51
51 51 51
51 51 51
51 51 51
51 51 51
51 51 51
51 51 51
51 51 51
51 51 51
51 51 51
51 51 51
51 51 51
51 51 51
51 51 51
51 51 51
51 51 51
51 51 51
51 51 51
51 51 51
51 51 51
51 51 51
51 51 51
51 51 51
51 51 51
51 51 51
51 51 51
51 51 51
51 51 51
51 51 51
51 51 51
51 51 51
51 51 51
51 51 51
51 51 51
51 51 51
51 51 51
51 51 51
51 51 51
51 51 51
51 51 51
51 51 51
51 51 51
51 51 51
51 51 51
51 51 51
51 51 51
51 51 51
51 51 51
51 51 51
51 51 51
51 51 51
51 51 51
51 51 51
51 51 51
51 51 51
51 51 51
51 51 51
51 51 51
51 51 51
51 51 51
51 51 51
51 51 51
51 51 51
51 51 51
51 51 51
51 51 51
51 51 51
51 51 51
51 51 51
51 51 51
51 51 51
51 51 51
51 51 51
51 51 51
51 51 51
51 51 51
51 51 51
51 51 51
51 51 51
51 51 51
51 51 51
51 51 51
51 51 51
51 51 51
51 51 51
51 51 51
51 51 51
51 51 51
51 51 51
51 51 51
51 51 51
51 51 51
51 51 51
51 51 51
51 51 51
51 51 51
51 51 51
51 51 51
51 51 51
51 51 51
51 51 51
51 51 51
51 51 51
51 51 51
51 51 51
51 51 51
51 51 51
51 51 51
51 51 51
51 51 51
51 51 51
51 51 51
51 51 51
51 51 51
51 51 51
51 51 51
51 51 51
51 51 51
51 51 51
51 51 51
51 51 51
51 51 51
51 51 51
51 51 51
51 51 51
51 51 51
51 51 51
51 51 51
51 51 51
51 51 51
51 51 51
51 51 51
51 51 51
51 51 51
51 51 51
51 51 51
51 51 51
51 51 51
51 51 51
51 51 51
51 51 51
51 51 51
51 51 51
51 51 51
51 51 51
51 51 51
51 51 51
51 51 51
51 51 51
51 51 51
51 51 51
51 51 51
51 51 51
51 51 51
51 51 51
51 51 51
51 51 51
51 51 51
51 51 51
51 51 51
51 51 51
51 51 51
51 51 51
51 51 51
51 51 51
51 51 51
51 51 51
51 51 51
51 51 51
51 51 51
51 51 51
51 51 51
51 51 51
51 51 51
51 51 51
51 51 51
51 51 51
51 51 51
51 51 51
51 51 51
51 51 51
51 51 51
51 51 51
51 51 51
51 51 51
51 51 51
51 51 51
51 51 51
51 51 51
51 51 51
51 51 51
51 51 51
51 51 51
51 51 51
51 51 51
51 51 51
51 51 51
51 51 51
51 51 51
51 51 51
51 51 51
51 51 51
51 51 51
51 51 51
51 51 51
51 51 51
51 51 51
51 51 51
51 51 51
51 51 51
51 51 51
51 51 51
51 51 51
51 51 51
51 51 51
51 51 51
51 51 51
51 51 51
51 51 51
51 51 51
51 51 51
51 51 51
51 51 51
51 51 51
51 51 51
51 51 51
51 51 51
51 51 51
51 51 51
51 51 51
51 51 51
51 51 51
51 51 51
51 51 51
51 51 51
51 51 51
51 51 51
51 51 51
51 51 51
51 51 51
51 51 51
51 51 51
51 51 51
51 51 51
51 51 51
51 51 51
51 51 51
51 51 51
51 51 51
51 51 51
51 51 51
51 51 51
51 51 51
51 51 51
51 51 51
51 51 51
51 51 51
51 51 51
51 51 51
51 51 51
51 51 51
51 51 51
51 51 51
51 51 51
51 51 51
51 51 51
51 51 51
51 51 51
51 51 51
51 51 51
51 51 51
51 51 51
51 51 51
51 51 51
51 51 51
51 51 51
51 51 51
51 51 51
51 51 51
51 51 51
51 51 51
51 51 51
51 51 51
51 51 51
51 51 51
51 51 51
51 51 51
51 51 51
51 51 51
51 51 51
51 51 51
51 51 51
51 51 51
51 51 51
51 51 51
51 51 51
51 51 51
51 51 51
51 51 51
51 51 51
51 51 51
51 51 51
51 51 51
51 51 51
51 51 51
51 51 51
51 51 51
51 51 51
51 51 51
51 51 51
51 51 51
51 51 51
51 51 51
51 51 51
51 51 51
51 51 51
51 51 51
51 51 51
51 51 51
51 51 51
51 51 51
51 51 51
51 51 51
51 51 51
51 51 51
51 51 51
51 51 51
51 51 51
51 51 51
51 51 51
51 51 51
51 51 51
51 51 51
51 51 51
51 51 51
51 51 51
51 51 51
51 51 51
51 51 51
51 51 51
51 51 51
51 51 51
51 51 51
51 51 51
51 51 51
51 51 51
51 51 51
51 51 51
51 51 51
51 51 51
51 51 51
51 51 51
51 51 51
51 51 51
51 51 51
51 51 51
51 51 51
51 51 51
51 51 51
51 51 51
51 51 51
51 51 51
51 51 51
51 51 51
51 51 51
51 51 51
51 51 51
51 51 51
51 51 51
51 51 51
51 51 51
51 51 51
51 51 51
51 51 51
51 51 51
51 51 51
51 51 51
51 51 51
51 51 51
51 51 51
51 51 51
51 51 51
51 51 51
51 51 51
51 51 51
51 51 51
51 51 51
51 51 51
51 51 51
51 51 51
51 51 51
51 51 51
51 51 51
51 51 51
51 51 51
51 51 51
51 51 51
51 51 51
51 51 51
51 51 51
51 51 51
51 51 51
51 51 51
51 51 51
51 51 51
51 51 51
51 51 51
51 51 51
51 51 51
51 51 51
51 51 51
51 51 51
51 51 51
51 51 51
51 51 51
51 51 51
51 51 51
51 51 51
51 51 51
51 51 51
51 51 51
51 51 51
51 51 51
51 51 51
51 51 51
51 51 51
51 51 51
51 51 51
51 51 51
51 51 51
51 51 51
51 51 51
51 51 51
51 51 51
51 51 51
51 51 51
51 51 51
51 51 51
51 51 51
51 51 51
51 51 51
51 51 51
51 51 51
51 51 51
51 51 51
51 51 51
51 51 51
51 51 51
51 51 51
51 51 51
51 51 51
51 51 51
51 51 51
51 51 51
51 51 51
51 51 51
51 51 51
51 51 51
51 51 51
51 51 51
51 51 51
51 51 51
51 51 51
51 51 51
51 51 51
51 51 51
51 51 51
51 51 51
51 51 51
51 51 51
51 51 51
51 51 51
51 51 51
51 51 51
51 51 51
51 51 51
51 51 51
51 51 51
51 51 51
51 51 51
51 51 51
51 51 51
51 51 51
51 51 51
51 51 51
51 51 51
51 51 51
51 51 51
51 51 51
51 51 51
51 51 51
51 51 51
51 51 51
51 51 51
51 51 51
51 51 51
51 51 51
51 51 51
51 51 51
51 51 51
51 51 51
51 51 51
51 51 51
51 51 51
51 51 51
51 51 51
51 51 51
51 51 51
51 51 51
51 51 51
51 51 51
51 51 51
51 51 51
51 51 51
51 51 51
51 51 51
51 51 51
51 51 51
51 51 51
51 51 51
51 51 51
51 51 51
51 51 51
51 51 51
51 51 51
51 51 51
51 51 51
51 51 51
51 51 51
51 51 51
51 51 51
51 51 51
51 51 51
51 51 51
51 51 51
51 51 51
51 51 51
51 51 51
51 51 51
51 51 51
51 51 51
51 51 51
51 51 51
51 51 51
51 51 51
51 51 51
51 51 51
51 51 51
51 51 51
51 51 51
51 51 51
51 51 51
51 51 51
51 51 51
51 51 51
51 51 51
51 51 51
51 51 51
51 51 51
51 51 51
51 51 51
51 51 51
51 51 51
51 51 51
51 51 51
51 51 51
51 51 51
51 51 51
51 51 51
51 51 51
51 51 51
51 51 51
51 51 51
51 51 51
51 51 51
51 51 51
51 51 51
51 51 51
51 51 51
51 51 51
51 51 51
51 51 51
51 51 51
51 51 51
51 51 51
51 51 51
51 51 51
51 51 51
51 51 51
51 51 51
51 51 51
51 51 51
51 51 51
51 51 51
51 51 51
51 51 51
51 51 51
51 51 51
51 51 51
51 51 51
51 51 51
51 51 51
51 51 51
51 51 51
51 51 51
51 51 51
51 51 51
51 51 51
51 51 51
51 51 51
51 51 51
51 51 51
51 51 51
51 51 51
51 51 51
51 51 51
51 51 51
51 51 51
51 51 51
51 51 51
51 51 51
51 51 51
51 51 51
51 51 51
51 51 51
51 51 51
51 51 51
51 51 51
51 51 51
51 51 51
51 51 51
51 51 51
51 51 51
51 51 51
51 51 51
51 51 51
51 51 51
51 51 51
51 51 51
51 51 51
51 51 51
51 51 51
51 51 51
51 51 51
51 51 51
51 51 51
51 51 51
51 51 51
51 51 51
51 51 51
51 51 51
51 51 51
51 51 51
51 51 51
51 51 51
51 51 51
51 51 51
51 51 51
51 51 51
51 51 51
51 51 51
51 51 51
51 51 51
51 51 51
51 51 51
51 51 51
51 51 51
51 51 51
51 51 51
51 51 51
51 51 51
51 51 51
51 51 51
51 51 51
51 51 51
51 51 51
51 51 51
51 51 51
51 51 51
51 51 51
51 51 51
51 51 51
51 51 51
51 51 51
51 51 51
51 51 51
51 51 51
51 51 51
51 51 51
51 51 51
51 51 51
51 51 51
51 51 51
51 51 51
51 51 51
51 51 51
51 51 51
51 51 51
51 51 51
51 51 51
51 51 51
51 51 51
51 51 51
51 51 51
51 51 51
51 51 51
51 51 51
51 51 51
51 51 51
51 51 51
51 51 51
51 51 51
51 51 51
51 51 51
51 51 51
51 51 51
51 51 51
51 51 51
51 51 51
51 51 51
51 51 51
51 51 51
51 51 51
51 51 51
51 51 51
51 51 51
51 51 51
51 51 51
51 51 51
51 51 51
51 51 51
51 51 51
51 51 51
51 51 51
51 51 51
51 51 51
51 51 51
51 51 51
51 51 51
51 51 51
51 51 51
51 51 51
51 51 51
51 51 51
51 51 51
51 51 51
51 51 51
51 51 51
51 51 51
51 51 51
51 51 51
51 51 51
51 51 51
51 51 51
51 51 51
51 51 51
51 51 51
51 51 51
51 51 51
51 51 51
51 51 51
51 51 51
51 51 51
51 51 51
51 51 51
51 51 51
51 51 51
51 51 51
51 51 51
51 51 51
51 51 51
51 51 51
51 51 51
51 51 51
51 51 51
51 51 51
51 51 51
51 51 51
51 51 51
51 51 51
51 51 51
51 51 51
51 51 51
51 51 51
51 51 51
51 51 51
51 51 51
51 51 51
51 51 51
51 51 51
51 51 51
51 51 51
51 51 51
51 51 51
51 51 51
51 51 51
51 51 51
51 51 51
51 51 51
51 51 51
51 51 51
51 51 51
51 51 51
51 51 51
51 51 51
51 51 51
51 51 51
51 51 51
51 51 51
51 51 51
51 51 51
51 51 51
51 51 51
51 51 51
51 51 51
51 51 51
51 51 51
51 51 51
51 51 51
51 51 51
51 51 51
51 51 51
51 51 51
51 51 51
51 51 51
51 51 51
51 51 51
51 51 51
51 51 51
51 51 51
51 51 51
51 51 51
51 51 51
51 51 51
51 51 51
51 51 51
51 51 51
51 51 51
51 51 51
51 51 51
51 51 51
51 51 51
51 51 51
51 51 51
51 51 51
51 51 51
51 51 51
51 51 51
51 51 51
51 51 51
51 51 51
51 51 51
51 51 51
51 51 51
51 51 51
51 51 51
51 51 51
51 51 51
51 51 51
51 51 51
51 51 51
51 51 51
51 51 51
51 51 51
51 51 51
51 51 51
51 51 51
51 51 51
51 51 51
51 51 51
51 51 51
51 51 51
51 51 51
51 51 51
51 51 51
51 51 51
51 51 51
51 51 51
51 51 51
51 51 51
51 51 51
51 51 51
51 51 51
51 51 51
51 51 51
51 51 51
51 51 51
51 51 51
51 51 51
51 51 51
51 51 51
51 51 51
51 51 51
51 51 51
51 51 51
51 51 51
51 51 51
51 51 51
51 51 51
51 51 51
51 51 51
51 51 51
51 51 51
51 51 51
51 51 51
51 51 51
51 51 51
51 51 51
51 51 51
51 51 51
51 51 51
51 51 51
51 51 51
51 51 51
51 51 51
51 51 51
51 51 51
51 51 51
51 51 51
51 51 51
51 51 51
51 51 51
51 51 51
51 51 51
51 51 51
51 51 51
51 51 51
51 51 51
51 51 51
51 51 51
51 51 51
51 51 51
51 51 51
51 51 51
51 51 51
51 51 51
51 51 51
51 51 51
51 51 51
51 51 51
51 51 51
51 51 51
51 51 51
51 51 51
51 51 51
51 51 51
51 51 51
51 51 51
51 51 51
51 51 51
51 51 51
51 51 51
51 51 51
51 51 51
51 51 51
51 51 51
51 51 51
51 51 51
51 51 51
51 51 51
51 51 51
51 51 51
51 51 51
51 51 51
51 51 51
51 51 51
51 51 51
51 51 51
51 51 51
51 51 51
51 51 51
51 51 51
51 51 51
51 51 51
51 51 51
51 51 51
51 51 51
51 51 51
51 51 51
51 51 51
51 51 51
51 51 51
51 51 51
51 51 51
51 51 51
51 51 51
51 51 51
51 51 51
51 51 51
51 51 51
51 51 51
51 51 51
51 51 51
51 51 51
51 51 51
51 51 51
51 51 51
51 51 51
51 51 51
51 51 51
51 51 51
51 51 51
51 51 51
51 51 51
51 51 51
51 51 51
51 51 51
51 51 51
51 51 51
51 51 51
51 51 51
51 51 51
51 51 51
51 51 51
51 51 51
51 51 51
51 51 51
51 51 51
51 51 51
51 51 51
51 51 51
51 51 51
51 51 51
51 51 51
51 51 51
51 51 51
51 51 51
51 51 51
51 51 51
51 51 51
51 51 51
51 51 51
51 51 51
51 51 51
51 51 51
51 51 51
51 51 51
51 51 51
51 51 51
51 51 51
51 51 51
51 51 51
51 51 51
51 51 51
51 51 51
51 51 51
51 51 51
51 51 51
51 51 51
51 51 51
51 51 51
51 51 51
51 51 51
51 51 51
51 51 51
51 51 51
51 51 51
51 51 51
51 51 51
51 51 51
51 51 51
51 51 51
51 51 51
51 51 51
51 51 51
51 51 51
51 51 51
51 51 51
51 51 51
51 51 51
51 51 51
51 51 51
51 51 51
51 51 51
51 51 51
51 51 51
51 51 51
51 51 51
51 51 51
51 51 51
51 51 51
51 51 51
51 51 51
51 51 51
51 51 51
51 51 51
51 51 51
51 51 51
51 51 51
51 51 51
51 51 51
51 51 51
51 51 51
51 51 51
51 51 51
51 51 51
51 51 51
51 51 51
51 51 51
51 51 51
51 51 51
51 51 51
51 51 51
51 51 51
51 51 51
51 51 51
51 51 51
51 51 51
51 51 51
51 51 51
51 51 51
51 51 51
51 51 51
51 51 51
51 51 51
51 51 51
51 51 51
51 51 51
51 51 51
51 51 51
51 51 51
51 51 51
51 51 51
51 51 51
51 51 51
51 51 51
51 51 51
51 51 51
51 51 51
51 51 51
51 51 51
51 51 51
51 51 51
51 51 51
51 51 51
51 51 51
51 51 51
51 51 51
51 51 51
51 51 51
51 51 51
51 51 51
51 51 51
51 51 51
51 51 51
51 51 51
51 51 51
51 51 51
51 51 51
51 51 51
51 51 51
51 51 51
51 51 51
51 51 51
51 51 51
51 51 51
51 51 51
51 51 51
51 51 51
51 51 51
51 51 51
51 51 51
51 51 51
51 51 51
51 51 51
51 51 51
51 51 51
51 51 51
51 51 51
51 51 51
51 51 51
51 51 51
51 51 51
51 51 51
51 51 51
51 51 51
51 51 51
51 51 51
51 51 51
51 51 51
51 51 51
51 51 51
51 51 51
51 51 51
51 51 51
51 51 51
51 51 51
51 51 51
51 51 51
51 51 51
51 51 51
51 51 51
51 51 51
51 51 51
51 51 51
51 51 51
51 51 51
51 51 51
51 51 51
51 51 51
51 51 51
51 51 51
51 51 51
51 51 51
51 51 51
51 51 51
51 51 51
51 51 51
51 51 51
51 51 51
51 51 51
51 51 51
51 51 51
51 51 51
51 51 51
51 51 51
51 51 51
51 51 51
51 51 51
51 51 51
51 51 51
51 51 51
51 51 51
51 51 51
51 51 51
51 51 51
51 51 51
51 51 51
51 51 51
51 51 51
51 51 51
51 51 51
51 51 51
51 51 51
51 51 51
51 51 51
51 51 51
51 51 51
51 51 51
51 51 51
51 51 51
51 51 51
51 51 51
51 51 51
51 51 51
51 51 51
51 51 51
51 51 51
51 51 51
51 51 51
51 51 51
51 51 51
51 51 51
51 51 51
51 51 51
51 51 51
51 51 51
51 51 51
51 51 51
51 51 51
51 51 51
51 51 51
51 51 51
51 51 51
51 51 51
51 51 51
51 51 51
51 51 51
51 51 51
51 51 51
51 51 51
51 51 51
51 51 51
51 51 51
51 51 51
51 51 51
51 51 51
51 51 51
51 51 51
51 51 51
51 51 51
51 51 51
51 51 51
51 51 51
51 51 51
51 51 51
51 51 51
51 51 51
51 51 51
51 51 51
51 51 51
51 51 51
51 51 51
51 51 51
51 51 51
51 51 51
51 51 51
51 51 51
51 51 51
51 51 51
51 51 51
51 51 51
51 51 51
51 51 51
51 51 51
51 51 51
51 51 51
51 51 51
51 51 51
51 51 51
51 51 51
51 51 51
51 51 51
51 51 51
51 51 51
51 51 51
51 51 51
51 51 51
51 51 51
51 51 51
51 51 51
51 51 51
51 51 51
51 51 51
51 51 51
51 51 51
51 51 51
51 51 51
51 51 51
51 51 51
51 51 51
51 51 51
51 51 51
51 51 51
51 51 51
51 51 51
51 51 51
51 51 51
51 51 51
51 51 51
51 51 51
51 51 51
51 51 51
51 51 51
51 51 51
51 51 51
51 51 51
51 51 51
51 51 51
51 51 51
51 51 51
51 51 51
51 51 51
51 51 51
51 51 51
51 51 51
51 51 51
51 51 51
51 51 51
51 51 51
51 51 51
51 51 51
51 51 51
51 51 51
51 51 51
51 51 51
51 51 51
51 51 51
51 51 51
51 51 51
51 51 51
51 51 51
51 51 51
51 51 51
51 51 51
51 51 51
51 51 51
51 51 51
51 51 51
51 51 51
51 51 51
51 51 51
51 51 51
51 51 51
51 51 51
51 51 51
51 51 51
51 51 51
51 51 51
51 51 51
51 51 51
51 51 51
51 51 51
51 51 51
51 51 51
51 51 51
51 51 51
51 51 51
51 51 51
51 51 51
51 51 51
51 51 51
51 51 51
51 51 51
51 51 51
51 51 51
51 51 51
51 51 51
51 51 51
51 51 51
51 51 51
51 51 51
51 51 51
51 51 51
51 51 51
51 51 51
51 51 51
51 51 51
51 51 51
51 51 51
51 51 51
51 51 51
51 51 51
51 51 51
51 51 51
51 51 51
51 51 51
51 51 51
51 51 51
51 51 51
51 51 51
51 51 51
51 51 51
51 51 51
51 51 51
51 51 51
51 51 51
51 51 51
51 51 51
51 51 51
51 51 51
51 51 51
51 51 51
51 51 51
51 51 51
51 51 51
51 51 51
51 51 51
51 51 51
51 51 51
51 51 51
51 51 51
51 51 51
51 51 51
51 51 51
51 51 51
51 51 51
51 51 51
51 51 51
51 51 51
51 51 51
51 51 51
51 51 51
51 51 51
51 51 51
51 51 51
51 51 51
51 51 51
51 51 51
51 51 51
51 51 51
51 51 51
51 51 51
51 51 51
51 51 51
51 51 51
51 51 51
51 51 51
51 51 51
51 51 51
51 51 51
51 51 51
51 51 51
51 51 51
51 51 51
51 51 51
51 51 51
51 51 51
51 51 51
51 51 51
51 51 51
51 51 51
51 51 51
51 51 51
51 51 51
51 51 51
51 51 51
51 51 51
51 51 51
51 51 51
51 51 51
51 51 51
51 51 51
51 51 51
51 51 51
51 51 51
51 51 51
51 51 51
51 51 51
51 51 51
51 51 51
51 51 51
51 51 51
51 51 51
51 51 51
51 51 51
51 51 51
51 51 51
51 51 51
51 51 51
51 51 51
51 51 51
51 51 51
51 51 51
51 51 51
51 51 51
51 51 51
51 51 51
51 51 51
51 51 51
51 51 51
51 51 51
51 51 51
51 51 51
51 51 51
51 51 51
51 51 51
51 51 51
51 51 51
51 51 51
51 51 51
51 51 51
51 51 51
51 51 51
51 51 51
51 51 51
51 51 51
51 51 51
51 51 51
51 51 51
51 51 51
51 51 51
51 51 51
51 51 51
51 51 51
51 51 51
51 51 51
51 51 51
51 51 51
51 51 51
51 51 51
51 51 51
51 51 51
51 51 51
51 51 51
51 51 51
51 51 51
51 51 51
51 51 51
51 51 51
51 51 51
51 51 51
51 51 51
51 51 51
51 51 51
51 51 51
51 51 51
51 51 51
51 51 51
51 51 51
51 51 51
51 51 51
51 51 51
51 51 51
51 51 51
51 51 51
51 51 51
51 51 51
51 51 51
51 51 51
51 51 51
51 51 51
51 51 51
51 51 51
51 51 51
51 51 51
51 51 51
51 51 51
51 51 51
51 51 51
51 51 51
51 51 51
51 51 51
51 51 51
51 51 51
51 51 51
51 51 51
51 51 51
51 51 51
51 51 51
51 51 51
51 51 51
51 51 51
51 51 51
51 51 51
51 51 51
51 51 51
51 51 51
51 51 51
51 51 51
51 51 51
51 51 51
51 51 51
51 51 51
51 51 51
51 51 51
51 51 51
51 51 51
51 51 51
51 51 51
51 51 51
51 51 51
51 51 51
51 51 51
51 51 51
51 51 51
51 51 51
51 51 51
51 51 51
51 51 51
51 51 51
51 51 51
51 51 51
51 51 51
51 51 51
51 51 51
51 51 51
51 51 51
51 51 51
51 51 51
51 51 51
51 51 51
51 51 51
51 51 51
51 51 51
51 51 51
51 51 51
51 51 51
51 51 51
51 51 51
51 51 51
51 51 51
51 51 51
51 51 51
51 51 51
51 51 51
51 51 51
51 51 51
51 51 51
51 51 51
51 51 51
51 51 51
51 51 51
51 51 51
51 51 51
51 51 51
51 51 51
51 51 51
51 51 51
51 51 51
51 51 51
51 51 51
51 51 51
51 51 51
51 51 51
51 51 51
51 51 51
51 51 51
51 51 51
51 51 51
51 51 51
51 51 51
51 51 51
51 51 51
51 51 51
51 51 51
51 51 51
51 51 51
51 51 51
51 51 51
51 51 51
51 51 51
51 51 51
51 51 51
51 51 51
51 51 51
51 51 51
51 51 51
51 51 51
51 51 51
51 51 51
51 51 51
51 51 51
51 51 51
51 51 51
51 51 51
51 51 51
51 51 51
51 51 51
51 51 51
51 51 51
51 51 51
51 51 51
51 51 51
51 51 51
51 51 51
51 51 51
51 51 51
51 51 51
51 51 51
51 51 51
51 51 51
51 51 51
51 51 51
51 51 51
51 51 51
51 51 51
51 51 51
51 51 51
51 51 51
51 51 51
51 51 51
51 51 51
51 51 51
51 51 51
51 51 51
51 51 51
51 51 51
51 51 51
51 51 51
51 51 51
51 51 51
51 51 51
51 51 51
51 51 51
51 51 51
51 51 51
51 51 51
51 51 51
51 51 51
51 51 51
51 51 51
51 51 51
51 51 51
51 51 51
51 51 51
51 51 51
51 51 51
51 51 51
51 51 51
51 51 51
51 51 51
51 51 51
51 51 51
51 51 51
51 51 51
51 51 51
51 51 51
51 51 51
51 51 51
51 51 51
51 51 51
51 51 51
51 51 51
51 51 51
51 51 51
51 51 51
51 51 51
51 51 51
51 51 51
51 51 51
51 51 51
51 51 51
51 51 51
51 51 51
51 51 51
51 51 51
51 51 51
51 51 51
51 51 51
51 51 51
51 51 51
51 51 51
51 51 51
51 51 51
51 51 51
51 51 51
51 51 51
51 51 51
51 51 51
51 51 51
51 51 51
51 51 51
51 51 51
51 51 51
51 51 51
51 51 51
51 51 51
51 51 51
51 51 51
51 51 51
51 51 51
51 51 51
51 51 51
51 51 51
51 51 51
51 51 51
51 51 51
51 51 51
51 51 51
51 51 51
51 51 51
51 51 51
51 51 51
51 51 51
51 51 51
51 51 51
51 51 51
51 51 51
51 51 51
51 51 51
51 51 51
51 51 51
51 51 51
51 51 51
51 51 51
51 51 51
51 51 51
51 51 51
51 51 51
51 51 51
51 51 51
51 51 51
51 51 51
51 51 51
51 51 51
51 51 51
51 51 51
51 51 51
51 51 51
51 51 51
51 51 51
51 51 51
51 51 51
51 51 51
51 51 51
51 51 51
51 51 51
51 51 51
51 51 51
51 51 51
51 51 51
51 51 51
51 51 51
51 51 51
51 51 51
51 51 51
51 51 51
51 51 51
51 51 51
51 51 51
51 51 51
51 51 51
51 51 51
51 51 51
51 51 51
51 51 51
51 51 51
51 51 51
51 51 51
51 51 51
51 51 51
51 51 51
51 51 51
51 51 51
51 51 51
